;FLAVOR:Marlin
;TIME:7019
;Filament used: 6.03548m
;Layer height: 0.28
;MINX:36.433
;MINY:78.564
;MINZ:0.28
;MAXX:178.043
;MAXY:160.564
;MAXZ:13.44
;Generated with Cura_SteamEngine 5.4.0
M140 S50
M105
M190 S50
M104 S200
M105
M109 S200
M82 ;absolute extrusion mode
; Ender 3 Custom Start G-code
G92 E0 ; Reset Extruder
G28 ; Home all axes
G1 Z2.0 F3000 ; Move Z Axis up little to prevent scratching of Heat Bed
G1 X0.1 Y20 Z0.3 F5000.0 ; Move to start position
G1 X0.1 Y200.0 Z0.3 F1500.0 E15 ; Draw the first line
G1 X0.4 Y200.0 Z0.3 F5000.0 ; Move to side a little
G1 X0.4 Y20 Z0.3 F1500.0 E30 ; Draw the second line
G92 E0 ; Reset Extruder
G1 Z2.0 F3000 ; Move Z Axis up little to prevent scratching of Heat Bed
G1 X5 Y20 Z0.3 F5000.0 ; Move over to prevent blob squish
G92 E0
G92 E0
G1 F2700 E-5
;LAYER_COUNT:48
;LAYER:0
M107
G0 F6000 X47.202 Y79.902 Z0.28
;TYPE:SKIRT
G1 F2700 E0
G1 F1200 X48.143 Y79.45 E0.04861
G1 X49.055 Y79.109 E0.09395
G1 X49.995 Y78.85 E0.13935
G1 X50.96 Y78.674 E0.18502
G1 X52.088 Y78.579 E0.23774
G1 X52.745 Y78.564 E0.26834
G1 X81.737 Y78.564 E1.61832
G1 X82.621 Y78.577 E1.65949
G1 X83.593 Y78.636 E1.70484
G1 X84.556 Y78.782 E1.75019
G1 X85.485 Y79.007 E1.7947
G1 X85.942 Y79.15 E1.817
G1 X86.957 Y79.492 E1.86687
G1 X89.46 Y80.297 E1.9893
G1 X91.866 Y80.998 E2.10599
G1 X94.282 Y81.626 E2.22223
G1 X96.791 Y82.204 E2.34212
G1 X99.248 Y82.696 E2.4588
G1 X101.677 Y83.113 E2.57356
G1 X104.226 Y83.476 E2.69345
G1 X106.678 Y83.755 E2.80836
G1 X109.197 Y83.971 E2.92608
G1 X111.711 Y84.112 E3.04333
G1 X114.376 Y84.191 E3.16748
G1 X115.404 Y84.274 E3.2155
G1 X117.29 Y84.533 E3.30415
G1 X119.817 Y84.829 E3.42262
G1 X122.275 Y85.046 E3.53752
G1 X124.802 Y85.195 E3.65539
G1 X127.344 Y85.275 E3.77381
G1 X129.833 Y85.284 E3.88971
G1 X132.399 Y85.219 E4.00924
G1 X135.39 Y85.06 E4.14871
G1 X136.176 Y85.045 E4.18531
G1 X137.377 Y85.073 E4.24125
G1 X138.969 Y85.152 E4.31547
G1 X141.269 Y85.245 E4.42266
G1 X142.161 Y85.317 E4.46433
G1 X143.163 Y85.459 E4.51145
G1 X144.199 Y85.693 E4.56091
G1 X144.837 Y85.869 E4.59172
G1 X145.518 Y86.08 E4.62492
G1 X148.952 Y87.26 E4.794
G1 X150.104 Y87.676 E4.85103
G1 X150.941 Y88.023 E4.89322
G1 X152.238 Y88.624 E4.95979
G1 X154.61 Y89.677 E5.08063
G1 X156.944 Y90.635 E5.19811
G1 X159.288 Y91.521 E5.31479
G1 X161.657 Y92.34 E5.43151
G1 X164.091 Y93.107 E5.55034
G1 X166.483 Y93.786 E5.66612
G1 X169.746 Y94.603 E5.82275
G1 X170.679 Y94.882 E5.8681
G1 X171.518 Y95.216 E5.91015
G1 X172.451 Y95.686 E5.95879
G1 X173.278 Y96.202 E6.00418
G1 X174.027 Y96.766 E6.04784
G1 X174.777 Y97.443 E6.09489
G1 X175.438 Y98.157 E6.14019
G1 X176.033 Y98.928 E6.18554
G1 X176.559 Y99.748 E6.23091
G1 X177.009 Y100.611 E6.27623
G1 X177.382 Y101.511 E6.32159
G1 X177.673 Y102.44 E6.36692
G1 X177.882 Y103.392 E6.41231
G1 X178.005 Y104.357 E6.4576
G1 X178.043 Y105.33 E6.50294
G1 X178 Y106.232 E6.54499
G1 X177.903 Y107.013 E6.58164
G1 X177.806 Y107.59 E6.60888
G1 X176.911 Y112.304 E6.83231
G1 X176.735 Y113.168 E6.87337
G1 X176.516 Y114.045 E6.91546
G1 X176.325 Y114.636 E6.94438
G1 X176.014 Y115.508 E6.98749
G1 X175.155 Y118.023 E7.11124
G1 X174.423 Y120.374 E7.22589
G1 X173.739 Y122.821 E7.3442
G1 X173.127 Y125.278 E7.46211
G1 X172.595 Y127.694 E7.5773
G1 X172.115 Y130.219 E7.69698
G1 X171.723 Y132.659 E7.81206
G1 X171.387 Y135.201 E7.93145
G1 X171.132 Y137.649 E8.04606
G1 X170.942 Y140.202 E8.16527
G1 X170.821 Y142.801 E8.28642
G1 X170.794 Y143.708 E8.32867
G1 X170.663 Y145.099 E8.39373
G1 X170.564 Y145.694 E8.42181
G1 X169.642 Y150.548 E8.65188
G1 X169.492 Y151.282 E8.68676
G1 X169.254 Y152.226 E8.73209
G1 X168.933 Y153.147 E8.77751
G1 X168.531 Y154.033 E8.82281
G1 X168.052 Y154.881 E8.86816
G1 X167.501 Y155.684 E8.91351
G1 X166.881 Y156.434 E8.95882
G1 X166.197 Y157.128 E9.00419
G1 X165.454 Y157.758 E9.04955
G1 X164.659 Y158.319 E9.09486
G1 X163.817 Y158.808 E9.1402
G1 X163 Y159.193 E9.18226
G1 X162.019 Y159.553 E9.23091
G1 X161.077 Y159.804 E9.27631
G1 X160.119 Y159.971 E9.32159
G1 X159.22 Y160.049 E9.36361
G1 X158.166 Y160.045 E9.41269
G1 X157.011 Y159.927 E9.46675
G1 X156.347 Y159.817 E9.49809
G1 X137.777 Y156.288 E10.37826
G1 X135.246 Y155.845 E10.49791
G1 X132.745 Y155.478 E10.61561
G1 X130.267 Y155.186 E10.7318
G1 X127.737 Y154.961 E10.85007
G1 X125.271 Y154.812 E10.9651
G1 X122.696 Y154.728 E11.08507
G1 X120.212 Y154.719 E11.20074
G1 X117.682 Y154.78 E11.31858
G1 X115.183 Y154.913 E11.43511
G1 X112.652 Y155.117 E11.55334
G1 X110.176 Y155.388 E11.66933
G1 X107.649 Y155.737 E11.78811
G1 X105.178 Y156.151 E11.90477
G1 X102.731 Y156.632 E12.0209
G1 X100.268 Y157.187 E12.13846
G1 X97.847 Y157.809 E12.25485
G1 X95.38 Y158.516 E12.37435
G1 X92.977 Y159.277 E12.49172
G1 X90.982 Y159.965 E12.58999
G1 X90.082 Y160.229 E12.63366
G1 X89.078 Y160.428 E12.68132
G1 X87.76 Y160.549 E12.74295
G1 X87.103 Y160.564 E12.77355
G1 X47.997 Y160.563 E14.59449
G1 X47.264 Y160.552 E14.62862
G1 X46.292 Y160.495 E14.67396
G1 X45.329 Y160.349 E14.71932
G1 X44.383 Y160.12 E14.76464
G1 X43.459 Y159.808 E14.81005
G1 X42.569 Y159.416 E14.85533
G1 X41.746 Y158.965 E14.89903
G1 X40.907 Y158.404 E14.94603
G1 X40.203 Y157.838 E14.98809
G1 X39.45 Y157.113 E15.03676
G1 X38.813 Y156.377 E15.08209
G1 X38.283 Y155.646 E15.12413
G1 X37.747 Y154.749 E15.17279
G1 X37.325 Y153.871 E15.21815
G1 X36.983 Y152.959 E15.2635
G1 X36.723 Y152.021 E15.30883
G1 X36.545 Y151.052 E15.3547
G1 X36.447 Y149.873 E15.40979
G1 X36.433 Y149.222 E15.44011
G1 X36.434 Y130.084 E16.33126
G1 X36.448 Y129.339 E16.36596
G1 X36.51 Y128.37 E16.41117
G1 X36.644 Y127.477 E16.45322
G1 X36.923 Y126.354 E16.5071
G1 X37.212 Y125.41 E16.55307
G1 X37.54 Y124.39 E16.60296
G1 X38.238 Y121.99 E16.71934
G1 X38.88 Y119.52 E16.83818
G1 X39.441 Y117.081 E16.95471
G1 X39.938 Y114.601 E17.07249
G1 X40.357 Y112.156 E17.188
G1 X40.713 Y109.656 E17.30558
G1 X40.995 Y107.16 E17.42255
G1 X41.21 Y104.658 E17.53948
G1 X41.351 Y102.143 E17.65677
G1 X41.424 Y99.584 E17.77598
G1 X41.433 Y98.283 E17.83656
G1 X41.434 Y90.102 E18.2175
G1 X41.446 Y89.378 E18.25122
G1 X41.505 Y88.404 E18.29665
G1 X41.652 Y87.443 E18.34192
G1 X41.883 Y86.496 E18.38731
G1 X42.183 Y85.608 E18.43096
G1 X42.589 Y84.683 E18.478
G1 X43.024 Y83.891 E18.52007
G1 X43.606 Y83.025 E18.56866
G1 X44.22 Y82.268 E18.61404
G1 X44.898 Y81.57 E18.65935
G1 X45.635 Y80.934 E18.70468
G1 X46.426 Y80.364 E18.75008
G1 X47.202 Y79.902 E18.79213
G0 F6000 X47.407 Y80.246
G1 F1200 X48.284 Y79.824 E18.83745
G1 X49.162 Y79.494 E18.88113
G1 X50.067 Y79.243 E18.92486
G1 X50.994 Y79.073 E18.96874
G1 X52.122 Y78.978 E19.02145
G1 X52.754 Y78.964 E19.05089
G1 X81.731 Y78.964 E20.40018
G1 X82.597 Y78.976 E20.44051
G1 X83.534 Y79.032 E20.48422
G1 X84.462 Y79.171 E20.52791
G1 X85.366 Y79.389 E20.57121
G1 X85.814 Y79.529 E20.59307
G1 X86.835 Y79.873 E20.64324
G1 X89.341 Y80.679 E20.76581
G1 X91.758 Y81.383 E20.88304
G1 X94.192 Y82.016 E21.00014
G1 X96.701 Y82.594 E21.12003
G1 X99.173 Y83.089 E21.23742
G1 X101.621 Y83.509 E21.35308
G1 X104.17 Y83.872 E21.47297
G1 X106.644 Y84.154 E21.58891
G1 X109.163 Y84.369 E21.70664
G1 X111.699 Y84.512 E21.82491
G1 X114.344 Y84.59 E21.94813
G1 X115.372 Y84.673 E21.99615
G1 X117.243 Y84.93 E22.08409
G1 X119.77 Y85.226 E22.20256
G1 X122.251 Y85.445 E22.31854
G1 X124.789 Y85.595 E22.43692
G1 X127.331 Y85.675 E22.55535
G1 X129.842 Y85.684 E22.67227
G1 X132.409 Y85.619 E22.79184
G1 X135.411 Y85.459 E22.93182
G1 X136.167 Y85.445 E22.96703
G1 X137.357 Y85.472 E23.02246
G1 X138.953 Y85.552 E23.09687
G1 X141.237 Y85.644 E23.20331
G1 X142.129 Y85.716 E23.24498
G1 X143.075 Y85.849 E23.28946
G1 X144.093 Y86.079 E23.33806
G1 X144.719 Y86.251 E23.36829
G1 X145.387 Y86.458 E23.40085
G1 X147.207 Y87.09 E23.49056
G1 X148.816 Y87.636 E23.56968
G1 X149.951 Y88.046 E23.62587
G1 X150.773 Y88.386 E23.66729
G1 X152.076 Y88.99 E23.73417
G1 X154.448 Y90.043 E23.85501
G1 X156.792 Y91.005 E23.97299
G1 X159.157 Y91.899 E24.09072
G1 X161.537 Y92.722 E24.20798
G1 X163.971 Y93.489 E24.32682
G1 X166.374 Y94.171 E24.44313
G1 X169.632 Y94.986 E24.59951
G1 X170.531 Y95.254 E24.64319
G1 X171.37 Y95.588 E24.68524
G1 X172.24 Y96.026 E24.7306
G1 X173.037 Y96.522 E24.77431
G1 X173.786 Y97.086 E24.81797
G1 X174.484 Y97.715 E24.86172
G1 X175.122 Y98.402 E24.90537
G1 X175.697 Y99.144 E24.94908
G1 X176.205 Y99.934 E24.99282
G1 X176.64 Y100.765 E25.0365
G1 X177 Y101.631 E25.08017
G1 X177.282 Y102.526 E25.12386
G1 X177.485 Y103.443 E25.16759
G1 X177.605 Y104.373 E25.21126
G1 X177.643 Y105.311 E25.25497
G1 X177.6 Y106.213 E25.29702
G1 X177.508 Y106.947 E25.33146
G1 X177.413 Y107.515 E25.35828
G1 X176.519 Y112.224 E25.58147
G1 X176.347 Y113.071 E25.62171
G1 X176.128 Y113.948 E25.6638
G1 X175.948 Y114.502 E25.69093
G1 X175.637 Y115.374 E25.73404
G1 X174.776 Y117.894 E25.85804
G1 X174.041 Y120.255 E25.97318
G1 X173.354 Y122.713 E26.09202
G1 X172.736 Y125.192 E26.21099
G1 X172.204 Y127.608 E26.32618
G1 X171.722 Y130.144 E26.44638
G1 X171.326 Y132.607 E26.56254
G1 X170.99 Y135.149 E26.68194
G1 X170.734 Y137.608 E26.79706
G1 X170.543 Y140.172 E26.91678
G1 X170.421 Y142.782 E27.03844
G1 X170.394 Y143.696 E27.08102
G1 X170.268 Y145.034 E27.1436
G1 X170.171 Y145.619 E27.17121
G1 X169.25 Y150.468 E27.40104
G1 X169.104 Y151.185 E27.43511
G1 X168.876 Y152.095 E27.47879
G1 X168.568 Y152.982 E27.52252
G1 X168.182 Y153.837 E27.5662
G1 X167.722 Y154.655 E27.6099
G1 X167.192 Y155.43 E27.65362
G1 X166.596 Y156.154 E27.69728
G1 X165.938 Y156.823 E27.74098
G1 X165.223 Y157.431 E27.78468
G1 X164.457 Y157.973 E27.82837
G1 X163.646 Y158.446 E27.87209
G1 X162.829 Y158.831 E27.91414
G1 X161.915 Y159.167 E27.95949
G1 X161.008 Y159.41 E28.00321
G1 X160.084 Y159.572 E28.04689
G1 X159.185 Y159.65 E28.08891
G1 X158.206 Y159.647 E28.1345
G1 X157.076 Y159.532 E28.18739
G1 X156.422 Y159.424 E28.21825
G1 X137.852 Y155.895 E29.09843
G1 X135.304 Y155.449 E29.21888
G1 X132.803 Y155.082 E29.33658
G1 X130.314 Y154.789 E29.45328
G1 X127.761 Y154.562 E29.57263
G1 X125.284 Y154.412 E29.68818
G1 X122.709 Y154.328 E29.80814
G1 X120.203 Y154.319 E29.92483
G1 X117.672 Y154.38 E30.04272
G1 X115.151 Y154.514 E30.16028
G1 X112.608 Y154.719 E30.27907
G1 X110.132 Y154.99 E30.39505
G1 X107.594 Y155.341 E30.51436
G1 X105.106 Y155.758 E30.63183
G1 X102.643 Y156.242 E30.74871
G1 X100.18 Y156.797 E30.86627
G1 X97.737 Y157.424 E30.98371
G1 X95.27 Y158.131 E31.10321
G1 X92.856 Y158.896 E31.22113
G1 X90.869 Y159.581 E31.31899
G1 X89.969 Y159.845 E31.36267
G1 X89.041 Y160.03 E31.40673
G1 X87.751 Y160.149 E31.46705
G1 X87.103 Y160.164 E31.49723
G1 X48.003 Y160.163 E33.31789
G1 X47.287 Y160.153 E33.35124
G1 X46.351 Y160.099 E33.39489
G1 X45.422 Y159.96 E33.43863
G1 X44.51 Y159.741 E33.48231
G1 X43.62 Y159.442 E33.52603
G1 X42.761 Y159.065 E33.56971
G1 X41.938 Y158.614 E33.61341
G1 X41.158 Y158.092 E33.65711
G1 X40.454 Y157.526 E33.69917
G1 X39.752 Y156.851 E33.74452
G1 X39.137 Y156.142 E33.78822
G1 X38.607 Y155.411 E33.83027
G1 X38.107 Y154.575 E33.87562
G1 X37.699 Y153.73 E33.91932
G1 X37.368 Y152.852 E33.96301
G1 X37.116 Y151.948 E34.00671
G1 X36.944 Y151.019 E34.0507
G1 X36.846 Y149.84 E34.10579
G1 X36.833 Y149.222 E34.13457
G1 X36.834 Y130.091 E35.02539
G1 X36.847 Y129.364 E35.05925
G1 X36.906 Y128.429 E35.10287
G1 X37.04 Y127.536 E35.14492
G1 X37.306 Y126.471 E35.19604
G1 X37.593 Y125.532 E35.24176
G1 X37.921 Y124.512 E35.29165
G1 X38.622 Y122.102 E35.40852
G1 X39.267 Y119.621 E35.52788
G1 X39.831 Y117.171 E35.64495
G1 X40.33 Y114.68 E35.76325
G1 X40.751 Y112.224 E35.87928
G1 X41.109 Y109.712 E35.99743
G1 X41.394 Y107.194 E36.11542
G1 X41.608 Y104.692 E36.23235
G1 X41.751 Y102.154 E36.35072
G1 X41.824 Y99.595 E36.46993
G1 X41.833 Y98.286 E36.53088
G1 X41.834 Y90.108 E36.91168
G1 X41.845 Y89.402 E36.94456
G1 X41.901 Y88.464 E36.98832
G1 X42.041 Y87.537 E37.03197
G1 X42.262 Y86.624 E37.07571
G1 X42.55 Y85.768 E37.11777
G1 X42.94 Y84.876 E37.1631
G1 X43.375 Y84.084 E37.20517
G1 X43.917 Y83.276 E37.25048
G1 X44.507 Y82.546 E37.29418
G1 X45.16 Y81.872 E37.33788
G1 X45.869 Y81.258 E37.38155
G1 X46.631 Y80.708 E37.42531
G1 X47.407 Y80.246 E37.46737
G0 F6000 X47.612 Y80.59
G1 F1200 X48.425 Y80.198 E37.50939
G1 X49.27 Y79.879 E37.55145
G1 X50.14 Y79.636 E37.59351
G1 X51.028 Y79.472 E37.63556
G1 X52.156 Y79.377 E37.68827
G1 X52.763 Y79.364 E37.71654
G1 X81.726 Y79.364 E39.06518
G1 X82.574 Y79.375 E39.10467
G1 X83.476 Y79.428 E39.14674
G1 X84.369 Y79.56 E39.18878
G1 X85.247 Y79.771 E39.23082
G1 X85.686 Y79.908 E39.25224
G1 X86.713 Y80.254 E39.3027
G1 X89.222 Y81.061 E39.42542
G1 X91.65 Y81.768 E39.54318
G1 X94.102 Y82.406 E39.66116
G1 X96.611 Y82.984 E39.78104
G1 X99.098 Y83.482 E39.89915
G1 X101.565 Y83.905 E40.0157
G1 X104.114 Y84.268 E40.13559
G1 X106.61 Y84.553 E40.25257
G1 X109.129 Y84.767 E40.37029
G1 X111.687 Y84.912 E40.48959
G1 X114.312 Y84.989 E40.61187
G1 X115.34 Y85.072 E40.6599
G1 X117.185 Y85.326 E40.74662
G1 X119.725 Y85.623 E40.8657
G1 X122.227 Y85.844 E40.98265
G1 X124.776 Y85.995 E41.10155
G1 X127.318 Y86.075 E41.21998
G1 X129.851 Y86.084 E41.33793
G1 X132.419 Y86.019 E41.45754
G1 X135.432 Y85.858 E41.59804
G1 X136.158 Y85.845 E41.63185
G1 X137.337 Y85.871 E41.68676
G1 X138.937 Y85.952 E41.76136
G1 X141.205 Y86.043 E41.86705
G1 X142.097 Y86.115 E41.90872
G1 X142.987 Y86.239 E41.95057
G1 X143.987 Y86.465 E41.9983
G1 X144.601 Y86.633 E42.02795
G1 X145.256 Y86.836 E42.05988
G1 X147.079 Y87.469 E42.14973
G1 X148.68 Y88.012 E42.22846
G1 X149.798 Y88.416 E42.28381
G1 X150.605 Y88.749 E42.32446
G1 X151.914 Y89.356 E42.39165
G1 X154.286 Y90.409 E42.51249
G1 X156.64 Y91.375 E42.63097
G1 X159.026 Y92.277 E42.74975
G1 X161.417 Y93.104 E42.86756
G1 X163.851 Y93.871 E42.98639
G1 X166.265 Y94.556 E43.10323
G1 X169.518 Y95.369 E43.25936
G1 X170.383 Y95.626 E43.30138
G1 X171.222 Y95.96 E43.34343
G1 X172.029 Y96.366 E43.3855
G1 X172.797 Y96.842 E43.42757
G1 X173.519 Y97.384 E43.46961
G1 X174.191 Y97.987 E43.51165
G1 X174.806 Y98.648 E43.55369
G1 X175.361 Y99.361 E43.59576
G1 X175.851 Y100.12 E43.63783
G1 X176.271 Y100.919 E43.67986
G1 X176.619 Y101.752 E43.7219
G1 X176.892 Y102.613 E43.76396
G1 X177.088 Y103.495 E43.80603
G1 X177.205 Y104.39 E43.84806
G1 X177.243 Y105.292 E43.8901
G1 X177.2 Y106.194 E43.93214
G1 X177.114 Y106.881 E43.96438
G1 X177.02 Y107.44 E43.99078
G1 X176.127 Y112.145 E44.21377
G1 X175.959 Y112.974 E44.25316
G1 X175.74 Y113.851 E44.29525
G1 X175.571 Y114.368 E44.32058
G1 X175.26 Y115.24 E44.36369
G1 X174.397 Y117.765 E44.48794
G1 X173.659 Y120.136 E44.60357
G1 X172.969 Y122.605 E44.72294
G1 X172.345 Y125.106 E44.84297
G1 X171.813 Y127.522 E44.95816
G1 X171.329 Y130.069 E45.07888
G1 X170.931 Y132.543 E45.19556
G1 X170.593 Y135.097 E45.31553
G1 X170.336 Y137.567 E45.43116
G1 X170.144 Y140.142 E45.5514
G1 X170.021 Y142.763 E45.67358
G1 X169.994 Y143.684 E45.71648
G1 X169.87 Y144.996 E45.77784
G1 X169.778 Y145.544 E45.80372
G1 X168.858 Y150.388 E46.03331
G1 X168.716 Y151.088 E46.06657
G1 X168.498 Y151.964 E46.1086
G1 X168.203 Y152.818 E46.15067
G1 X167.833 Y153.642 E46.19273
G1 X167.392 Y154.43 E46.23478
G1 X166.883 Y155.176 E46.27683
G1 X166.31 Y155.874 E46.31888
G1 X165.678 Y156.519 E46.36093
G1 X164.991 Y157.105 E46.40298
G1 X164.255 Y157.628 E46.44502
G1 X163.475 Y158.084 E46.48709
G1 X162.658 Y158.469 E46.52915
G1 X161.811 Y158.781 E46.57118
G1 X160.939 Y159.016 E46.61323
G1 X160.049 Y159.173 E46.65531
G1 X159.15 Y159.251 E46.69733
G1 X158.246 Y159.249 E46.73942
G1 X157.141 Y159.137 E46.79114
G1 X156.497 Y159.031 E46.82153
G1 X137.927 Y155.502 E47.7017
G1 X135.362 Y155.053 E47.82296
G1 X132.861 Y154.686 E47.94066
G1 X130.361 Y154.392 E48.05787
G1 X127.785 Y154.163 E48.1783
G1 X125.297 Y154.012 E48.29436
G1 X122.722 Y153.928 E48.41433
G1 X120.194 Y153.919 E48.53204
G1 X117.662 Y153.98 E48.64998
G1 X115.119 Y154.115 E48.76856
G1 X112.569 Y154.321 E48.88768
G1 X110.089 Y154.592 E49.00385
G1 X107.539 Y154.945 E49.12372
G1 X105.034 Y155.365 E49.24199
G1 X102.555 Y155.852 E49.35963
G1 X100.092 Y156.407 E49.47719
G1 X97.627 Y157.039 E49.59569
G1 X95.16 Y157.746 E49.71519
G1 X92.735 Y158.515 E49.83365
G1 X90.756 Y159.197 E49.93111
G1 X89.89 Y159.453 E49.97316
G1 X89.004 Y159.632 E50.01525
