;FLAVOR:Marlin
;TIME:6366
;Filament used: 4.4855m
;Layer height: 0.28
;MINX:78.575
;MINY:96.706
;MINZ:0.28
;MAXX:156.82
;MAXY:138.498
;MAXZ:51.52
;Generated with Cura_SteamEngine 5.4.0
M140 S50
M105
M190 S50
M104 S200
M105
M109 S200
M82 ;absolute extrusion mode
; Ender 3 Custom Start G-code
G92 E0 ; Reset Extruder
G28 ; Home all axes
G1 Z2.0 F3000 ; Move Z Axis up little to prevent scratching of Heat Bed
G1 X0.1 Y20 Z0.3 F5000.0 ; Move to start position
G1 X0.1 Y200.0 Z0.3 F1500.0 E15 ; Draw the first line
G1 X0.4 Y200.0 Z0.3 F5000.0 ; Move to side a little
G1 X0.4 Y20 Z0.3 F1500.0 E30 ; Draw the second line
G92 E0 ; Reset Extruder
G1 Z2.0 F3000 ; Move Z Axis up little to prevent scratching of Heat Bed
G1 X5 Y20 Z0.3 F5000.0 ; Move over to prevent blob squish
G92 E0
G92 E0
G1 F2700 E-5
;LAYER_COUNT:184
;LAYER:0
M107
G0 F6000 X82.765 Y102.079 Z0.28
;TYPE:SKIRT
G1 F2700 E0
G1 F1200 X83.554 Y101.511 E0.04527
G1 X84.391 Y101.013 E0.09062
G1 X85.269 Y100.592 E0.13596
G1 X86.182 Y100.25 E0.18136
G1 X87.12 Y99.99 E0.22668
G1 X88.086 Y99.812 E0.27242
G1 X89.23 Y99.715 E0.32588
G1 X89.905 Y99.7 E0.35732
G1 X94.839 Y99.701 E0.58707
G1 X95.586 Y99.714 E0.62186
G1 X96.543 Y99.772 E0.6665
G1 X97.084 Y99.844 E0.69191
G1 X97.647 Y99.932 E0.71845
G1 X100.149 Y100.289 E0.83613
G1 X102.685 Y100.577 E0.95498
G1 X105.204 Y100.794 E1.07271
G1 X107.662 Y100.932 E1.18734
G1 X110.228 Y101.006 E1.30687
G1 X112.716 Y101.006 E1.42273
G1 X115.25 Y100.935 E1.54077
G1 X117.734 Y100.795 E1.65662
G1 X120.305 Y100.579 E1.77675
G1 X122.735 Y100.303 E1.89063
G1 X125.279 Y99.94 E2.01029
G1 X127.009 Y99.652 E2.09196
G1 X129.511 Y99.182 E2.2105
G1 X131.997 Y98.642 E2.32896
G1 X134.405 Y98.048 E2.44444
G1 X136.312 Y97.525 E2.53652
G1 X137.539 Y97.177 E2.59591
G1 X138.565 Y96.933 E2.64501
G1 X139.578 Y96.781 E2.69271
G1 X140.62 Y96.718 E2.74132
G1 X141.553 Y96.706 E2.78477
G1 X142.589 Y96.722 E2.83302
G1 X143.491 Y96.78 E2.8751
G1 X144.808 Y96.999 E2.93727
G1 X145.51 Y97.161 E2.97082
G1 X146.381 Y97.402 E3.0129
G1 X147.358 Y97.77 E3.06151
G1 X148.172 Y98.161 E3.10356
G1 X149.297 Y98.849 E3.16497
G1 X151.956 Y100.704 E3.31593
G1 X152.728 Y101.299 E3.36132
G1 X153.443 Y101.958 E3.40659
G1 X154.098 Y102.679 E3.45195
G1 X154.646 Y103.397 E3.49401
G1 X155.204 Y104.282 E3.54273
G1 X155.647 Y105.148 E3.58802
G1 X155.999 Y106.018 E3.63172
G1 X156.284 Y106.95 E3.6771
G1 X156.491 Y107.933 E3.72388
G1 X156.595 Y108.755 E3.76246
G1 X156.771 Y110.784 E3.8573
G1 X156.807 Y111.426 E3.88724
G1 X156.82 Y112.049 E3.91625
G1 X156.819 Y114.187 E4.01581
G1 X156.789 Y116.145 E4.10699
G1 X156.783 Y118.751 E4.22834
G1 X156.818 Y120.379 E4.30416
G1 X156.819 Y122.726 E4.41345
G1 X156.808 Y123.451 E4.44721
G1 X156.771 Y124.203 E4.48227
G1 X156.593 Y126.273 E4.57901
G1 X156.464 Y127.235 E4.62421
G1 X156.269 Y128.117 E4.66627
G1 X155.952 Y129.115 E4.71503
G1 X155.574 Y130.012 E4.76035
G1 X155.118 Y130.873 E4.80572
G1 X154.589 Y131.69 E4.85104
G1 X154.011 Y132.43 E4.89476
G1 X153.321 Y133.167 E4.94178
G1 X152.627 Y133.79 E4.9852
G1 X152.106 Y134.194 E5.0159
G1 X149.698 Y135.953 E5.15476
G1 X148.916 Y136.481 E5.19869
G1 X147.837 Y137.064 E5.2558
G1 X147.147 Y137.375 E5.29104
G1 X146.655 Y137.577 E5.31581
G1 X145.737 Y137.908 E5.36125
G1 X144.838 Y138.145 E5.40454
G1 X144.25 Y138.258 E5.43242
G1 X143.676 Y138.35 E5.45949
G1 X142.72 Y138.462 E5.50431
G1 X142.105 Y138.488 E5.53297
G1 X141.1 Y138.498 E5.57977
G1 X140.359 Y138.484 E5.61428
G1 X139.387 Y138.421 E5.65964
G1 X138.425 Y138.273 E5.70496
G1 X137.501 Y138.046 E5.74926
G1 X134.829 Y137.266 E5.87888
G1 X132.4 Y136.632 E5.99577
G1 X129.925 Y136.06 E6.11405
G1 X127.43 Y135.558 E6.23256
G1 X125.011 Y135.142 E6.34685
G1 X122.488 Y134.78 E6.46554
G1 X120.012 Y134.497 E6.58158
G1 X117.453 Y134.275 E6.70118
G1 X115.007 Y134.136 E6.81526
G1 X112.432 Y134.061 E6.93522
G1 X109.944 Y134.059 E7.05107
G1 X107.418 Y134.128 E7.16873
G1 X104.922 Y134.266 E7.28514
G1 X102.404 Y134.478 E7.4028
G1 X99.911 Y134.76 E7.51962
G1 X96.85 Y135.19 E7.66356
G1 X95.694 Y135.286 E7.71757
G1 X95.045 Y135.3 E7.7478
G1 X90.139 Y135.299 E7.97624
G1 X89.406 Y135.288 E8.01038
G1 X88.434 Y135.231 E8.05572
G1 X87.471 Y135.085 E8.10107
G1 X86.525 Y134.856 E8.14639
G1 X85.601 Y134.544 E8.1918
G1 X84.711 Y134.152 E8.23709
G1 X83.888 Y133.701 E8.28079
G1 X83.049 Y133.14 E8.32778
G1 X82.345 Y132.574 E8.36984
G1 X81.592 Y131.849 E8.41852
G1 X80.955 Y131.113 E8.46384
G1 X80.425 Y130.382 E8.50589
G1 X79.889 Y129.485 E8.55454
G1 X79.467 Y128.607 E8.5999
G1 X79.125 Y127.695 E8.64526
G1 X78.865 Y126.757 E8.69058
G1 X78.687 Y125.788 E8.73646
G1 X78.589 Y124.605 E8.79173
G1 X78.575 Y123.954 E8.82205
G1 X78.576 Y111.254 E9.41342
G1 X78.587 Y110.53 E9.44713
G1 X78.645 Y109.557 E9.49252
G1 X78.79 Y108.594 E9.53787
G1 X79.01 Y107.681 E9.5816
G1 X79.331 Y106.725 E9.62855
G1 X79.724 Y105.834 E9.6739
G1 X80.175 Y105.012 E9.71756
G1 X80.736 Y104.173 E9.76455
G1 X81.302 Y103.469 E9.80662
G1 X82.028 Y102.716 E9.85532
G1 X82.765 Y102.079 E9.90068
G0 F6000 X82.999 Y102.403
G1 F1200 X83.759 Y101.854 E9.94434
G1 X84.565 Y101.373 E9.98804
G1 X85.41 Y100.966 E10.03172
G1 X86.289 Y100.635 E10.07545
G1 X87.193 Y100.383 E10.11915
G1 X88.12 Y100.211 E10.16305
G1 X89.264 Y100.114 E10.21651
G1 X89.905 Y100.1 E10.24637
G1 X94.832 Y100.101 E10.47579
G1 X95.562 Y100.113 E10.50979
G1 X96.491 Y100.169 E10.55312
G1 X97.022 Y100.239 E10.57806
G1 X97.59 Y100.328 E10.60483
G1 X100.092 Y100.685 E10.72252
G1 X102.651 Y100.976 E10.84244
G1 X105.17 Y101.192 E10.96017
G1 X107.65 Y101.332 E11.07583
G1 X110.216 Y101.406 E11.19537
G1 X112.727 Y101.406 E11.31229
G1 X115.261 Y101.335 E11.43033
G1 X117.768 Y101.194 E11.54725
G1 X120.339 Y100.977 E11.66739
G1 X122.791 Y100.699 E11.7823
G1 X125.345 Y100.335 E11.90242
G1 X127.075 Y100.047 E11.98409
G1 X129.598 Y99.573 E12.10363
G1 X132.082 Y99.033 E12.22199
G1 X134.511 Y98.434 E12.33849
G1 X136.418 Y97.911 E12.43056
G1 X137.632 Y97.566 E12.48933
G1 X138.624 Y97.329 E12.53682
G1 X139.637 Y97.177 E12.58452
G1 X140.625 Y97.118 E12.63061
G1 X141.547 Y97.106 E12.67354
G1 X142.563 Y97.121 E12.72086
G1 X143.465 Y97.179 E12.76294
G1 X144.718 Y97.389 E12.8221
G1 X145.403 Y97.547 E12.85484
G1 X146.274 Y97.788 E12.89692
G1 X147.185 Y98.131 E12.94225
G1 X147.999 Y98.522 E12.98429
G1 X149.068 Y99.177 E13.04267
G1 X151.712 Y101.021 E13.19277
G1 X152.457 Y101.593 E13.23651
G1 X153.147 Y102.228 E13.28017
G1 X153.78 Y102.922 E13.32391
G1 X154.328 Y103.64 E13.36597
G1 X154.848 Y104.464 E13.41134
G1 X155.276 Y105.299 E13.45503
G1 X155.616 Y106.135 E13.49706
G1 X155.901 Y107.067 E13.54244
G1 X156.094 Y107.983 E13.58603
G1 X156.196 Y108.79 E13.6239
G1 X156.372 Y110.819 E13.71874
G1 X156.407 Y111.434 E13.74742
G1 X156.42 Y112.049 E13.77606
G1 X156.419 Y114.181 E13.87534
G1 X156.389 Y116.139 E13.96652
G1 X156.383 Y118.75 E14.0881
G1 X156.418 Y120.379 E14.16397
G1 X156.419 Y122.72 E14.27298
G1 X156.409 Y123.431 E14.30609
G1 X156.372 Y124.169 E14.3405
G1 X156.196 Y126.22 E14.43635
G1 X156.073 Y127.149 E14.47999
G1 X155.878 Y128.031 E14.52205
G1 X155.583 Y128.96 E14.56743
G1 X155.22 Y129.825 E14.61112
G1 X154.782 Y130.656 E14.65486
G1 X154.273 Y131.444 E14.69854
G1 X153.718 Y132.157 E14.74061
G1 X153.054 Y132.869 E14.78594
G1 X152.36 Y133.492 E14.82937
G1 X151.87 Y133.871 E14.85822
G1 X149.474 Y135.621 E14.99637
G1 X148.692 Y136.149 E15.04031
G1 X147.673 Y136.699 E15.09423
G1 X146.994 Y137.005 E15.12891
G1 X146.519 Y137.201 E15.15283
G1 X145.635 Y137.521 E15.19661
G1 X144.762 Y137.752 E15.23866
G1 X144.186 Y137.863 E15.26598
G1 X143.629 Y137.953 E15.29225
G1 X142.703 Y138.062 E15.33566
G1 X142.101 Y138.088 E15.36372
G1 X141.107 Y138.098 E15.41001
G1 X140.384 Y138.085 E15.44368
G1 X139.448 Y138.026 E15.48735
G1 X138.52 Y137.884 E15.53107
G1 X137.613 Y137.662 E15.57455
G1 X134.941 Y136.882 E15.70416
G1 X132.49 Y136.242 E15.82211
G1 X130.015 Y135.67 E15.9404
G1 X127.505 Y135.165 E16.05962
G1 X125.068 Y134.746 E16.17476
G1 X122.545 Y134.384 E16.29344
G1 X120.046 Y134.098 E16.41057
G1 X117.487 Y133.877 E16.53017
G1 X115.019 Y133.736 E16.64528
G1 X112.444 Y133.661 E16.76523
G1 X109.933 Y133.659 E16.88215
G1 X107.407 Y133.728 E16.99982
G1 X104.888 Y133.868 E17.11729
G1 X102.37 Y134.08 E17.23496
G1 X99.855 Y134.364 E17.35281
G1 X96.817 Y134.791 E17.49566
G1 X95.661 Y134.887 E17.54968
G1 X95.045 Y134.9 E17.57837
G1 X90.145 Y134.899 E17.80653
G1 X89.429 Y134.889 E17.83987
G1 X88.493 Y134.835 E17.88353
G1 X87.564 Y134.696 E17.92727
G1 X86.652 Y134.477 E17.97094
G1 X85.762 Y134.178 E18.01466
G1 X84.903 Y133.801 E18.05834
G1 X84.08 Y133.35 E18.10204
G1 X83.3 Y132.828 E18.14575
G1 X82.596 Y132.262 E18.18781
G1 X81.894 Y131.587 E18.23315
G1 X81.279 Y130.878 E18.27686
G1 X80.749 Y130.147 E18.3189
G1 X80.249 Y129.311 E18.36426
G1 X79.841 Y128.466 E18.40795
G1 X79.51 Y127.588 E18.45165
G1 X79.258 Y126.684 E18.49534
G1 X79.086 Y125.755 E18.53934
G1 X78.988 Y124.572 E18.59461
G1 X78.975 Y123.954 E18.6234
G1 X78.976 Y111.26 E19.21448
G1 X78.986 Y110.553 E19.24741
G1 X79.041 Y109.616 E19.29111
G1 X79.179 Y108.688 E19.3348
G1 X79.399 Y107.775 E19.37853
G1 X79.697 Y106.886 E19.42219
G1 X80.075 Y106.026 E19.46593
G1 X80.526 Y105.204 E19.50959
G1 X81.048 Y104.424 E19.55329
G1 X81.614 Y103.72 E19.59535
G1 X82.29 Y103.018 E19.64073
G1 X82.999 Y102.403 E19.68444
G0 F6000 X83.234 Y102.727
G1 F1200 X83.965 Y102.197 E19.72648
G1 X84.739 Y101.733 E19.7685
G1 X85.552 Y101.34 E19.81055
G1 X86.397 Y101.02 E19.85262
G1 X87.267 Y100.776 E19.8947
G1 X88.154 Y100.61 E19.93672
G1 X89.298 Y100.513 E19.99018
G1 X89.905 Y100.5 E20.01845
G1 X94.826 Y100.501 E20.24759
G1 X95.538 Y100.512 E20.28075
G1 X96.439 Y100.566 E20.32278
G1 X96.96 Y100.634 E20.34724
G1 X97.533 Y100.724 E20.37425
G1 X100.035 Y101.081 E20.49193
G1 X102.617 Y101.375 E20.61294
G1 X105.136 Y101.59 E20.73066
G1 X107.638 Y101.732 E20.84735
G1 X110.204 Y101.806 E20.96689
G1 X112.738 Y101.806 E21.08488
G1 X115.272 Y101.735 E21.20292
G1 X117.802 Y101.593 E21.32091
G1 X120.373 Y101.375 E21.44106
G1 X122.847 Y101.095 E21.55699
G1 X125.411 Y100.73 E21.67759
G1 X127.141 Y100.442 E21.75925
G1 X129.685 Y99.964 E21.87979
G1 X132.167 Y99.424 E21.99806
G1 X134.617 Y98.82 E22.11556
G1 X136.524 Y98.297 E22.20764
G1 X137.725 Y97.955 E22.26578
G1 X138.683 Y97.725 E22.31166
G1 X139.696 Y97.573 E22.35936
G1 X140.63 Y97.518 E22.40292
G1 X141.541 Y97.506 E22.44535
G1 X142.537 Y97.52 E22.49173
G1 X143.439 Y97.578 E22.53382
G1 X144.628 Y97.779 E22.58997
G1 X145.296 Y97.933 E22.62189
G1 X146.167 Y98.174 E22.66397
G1 X147.012 Y98.492 E22.70601
G1 X147.826 Y98.883 E22.74806
G1 X148.839 Y99.505 E22.80341
G1 X151.469 Y101.339 E22.95271
G1 X152.187 Y101.888 E22.9948
G1 X152.852 Y102.498 E23.03682
G1 X153.462 Y103.165 E23.0789
G1 X154.01 Y103.883 E23.12096
G1 X154.492 Y104.647 E23.16303
G1 X154.905 Y105.45 E23.20507
G1 X155.245 Y106.286 E23.2471
G1 X155.51 Y107.15 E23.28918
G1 X155.697 Y108.033 E23.33121
G1 X155.797 Y108.825 E23.36838
G1 X155.973 Y110.854 E23.46321
G1 X156.007 Y111.443 E23.49068
G1 X156.02 Y112.049 E23.51891
G1 X156.019 Y114.175 E23.6179
G1 X155.989 Y116.133 E23.70909
G1 X155.983 Y118.749 E23.8309
G1 X156.018 Y120.379 E23.90682
G1 X156.019 Y122.714 E24.01554
G1 X156.009 Y123.411 E24.048
G1 X155.973 Y124.135 E24.08176
G1 X155.799 Y126.168 E24.17677
G1 X155.682 Y127.063 E24.2188
G1 X155.487 Y127.945 E24.26086
G1 X155.214 Y128.806 E24.30292
G1 X154.866 Y129.639 E24.34495
G1 X154.446 Y130.439 E24.38703
G1 X153.957 Y131.198 E24.42907
G1 X153.402 Y131.911 E24.47114
G1 X152.787 Y132.572 E24.51318
G1 X152.115 Y133.176 E24.55526
G1 X151.634 Y133.548 E24.58357
G1 X149.25 Y135.29 E24.72106
G1 X148.502 Y135.797 E24.76313
G1 X147.508 Y136.334 E24.81574
G1 X146.841 Y136.635 E24.84981
G1 X146.382 Y136.825 E24.87295
G1 X145.533 Y137.134 E24.91502
G1 X144.66 Y137.365 E24.95707
G1 X144.122 Y137.468 E24.98257
G1 X143.582 Y137.556 E25.00805
G1 X142.685 Y137.662 E25.05011
G1 X142.097 Y137.688 E25.07751
G1 X141.114 Y137.698 E25.12329
G1 X140.409 Y137.686 E25.15612
G1 X139.508 Y137.63 E25.19816
G1 X138.615 Y137.495 E25.24021
G1 X137.725 Y137.278 E25.28287
G1 X135.053 Y136.498 E25.41248
G1 X132.58 Y135.852 E25.5315
G1 X130.105 Y135.28 E25.64978
G1 X127.58 Y134.772 E25.76971
G1 X125.125 Y134.35 E25.8857
G1 X122.602 Y133.988 E26.00439
G1 X120.08 Y133.699 E26.12259
G1 X117.521 Y133.479 E26.24219
G1 X115.031 Y133.336 E26.35832
G1 X112.456 Y133.261 E26.47828
G1 X109.922 Y133.259 E26.59627
G1 X107.396 Y133.328 E26.71394
G1 X104.854 Y133.47 E26.83249
G1 X102.336 Y133.682 E26.95015
G1 X99.799 Y133.968 E27.06903
G1 X96.784 Y134.392 E27.2108
G1 X95.652 Y134.487 E27.2637
G1 X95.045 Y134.5 E27.29197
G1 X90.15 Y134.499 E27.5199
G1 X89.452 Y134.49 E27.55241
G1 X88.551 Y134.439 E27.59443
G1 X87.657 Y134.307 E27.63651
G1 X86.779 Y134.098 E27.67853
G1 X85.922 Y133.811 E27.72062
G1 X85.095 Y133.45 E27.76264
G1 X84.302 Y133.017 E27.80471
G1 X83.551 Y132.516 E27.84674
G1 X82.847 Y131.95 E27.88881
G1 X82.196 Y131.324 E27.93086
G1 X81.603 Y130.643 E27.97291
G1 X81.073 Y129.912 E28.01495
G1 X80.609 Y129.137 E28.05701
G1 X80.215 Y128.324 E28.09908
G1 X79.895 Y127.48 E28.14111
G1 X79.651 Y126.61 E28.18318
G1 X79.485 Y125.722 E28.22525
G1 X79.388 Y124.563 E28.27941
G1 X79.375 Y123.954 E28.30777
G1 X79.376 Y111.265 E28.89862
G1 X79.385 Y110.576 E28.93071
G1 X79.437 Y109.674 E28.97278
G1 X79.568 Y108.781 E29.01481
G1 X79.778 Y107.902 E29.05689
G1 X80.064 Y107.046 E29.09891
G1 X80.426 Y106.218 E29.14099
G1 X80.859 Y105.426 E29.18302
G1 X81.36 Y104.675 E29.22506
G1 X81.926 Y103.971 E29.26712
G1 X82.552 Y103.32 E29.30918
G1 X83.234 Y102.727 E29.35126
G1 F2700 E24.35126
G0 F6000 X96.028 Y110.047
G0 X96.375 Y114.352
G1 F2700 E29.35126
G1 F1200 X96.399 Y114.349 E29.35238
G1 X96.499 Y114.302 E29.35753
G1 X126.478 Y114.302 E30.75348
G1 X126.621 Y114.376 E30.76098
G1 X126.625 Y120.626 E31.052
G1 X126.619 Y120.626 E31.05228
G1 X126.502 Y120.669 E31.05808
G1 X126.488 Y120.698 E31.05958
G1 X96.485 Y120.698 E32.45665
G1 X96.39 Y120.646 E32.46169
G1 X96.375 Y120.645 E32.46239
G1 X96.375 Y114.352 E32.75542
G0 F6000 X96.775 Y114.702
G1 F1200 X126.225 Y114.702 E34.12674
G1 X126.225 Y120.298 E34.38731
G1 X96.775 Y120.298 E35.75863
G1 X96.775 Y114.702 E36.0192
G0 F6000 X97.175 Y115.102
G1 F1200 X125.825 Y115.102 E37.35326
G1 X125.825 Y119.898 E37.57658
G1 X97.175 Y119.898 E38.91065
G1 X97.175 Y115.102 E39.13397
G0 F6000 X97.575 Y115.502
G1 F1200 X125.425 Y115.502 E40.43078
G1 X125.425 Y119.498 E40.61685
G1 X97.575 Y119.498 E41.91367
G1 X97.575 Y115.502 E42.09974
G0 F6000 X97.975 Y115.902
G1 F1200 X125.025 Y115.902 E43.3593
G1 X125.025 Y119.098 E43.50812
G1 X97.975 Y119.098 E44.76768
G1 X97.975 Y115.902 E44.9165
G0 F6000 X98.375 Y116.302
G1 F1200 X124.625 Y116.302 E46.13881
G1 X124.625 Y118.698 E46.25038
G1 X98.375 Y118.698 E47.47269
G1 X98.375 Y116.302 E47.58425
G0 F6000 X98.775 Y116.702
G1 F1200 X124.225 Y116.702 E48.76931
G1 X124.225 Y118.298 E48.84363
G1 X98.775 Y118.298 E50.02869
G1 X98.775 Y116.702 E50.103
G0 F6000 X99.175 Y117.102
G1 F1200 X123.825 Y117.102 E51.25081
G1 X123.825 Y117.898 E51.28788
G1 X99.175 Y117.898 E52.43568
G1 X99.175 Y117.102 E52.47275
G1 F2700 E47.47275
G0 F6000 X126.972 Y110.047
G0 X134.425 Y109.899
G1 F2700 E52.47275
G1 F1200 X136.717 Y109.896 E52.57947
G1 X136.728 Y109.896 E52.57999
G1 X137.249 Y109.866 E52.60429
G1 X137.279 Y109.862 E52.60569
G1 X137.715 Y109.771 E52.62643
G1 X137.743 Y109.763 E52.62779
G1 X138.184 Y109.601 E52.64967
G1 X138.218 Y109.584 E52.65144
G1 X138.623 Y109.341 E52.67343
G1 X138.644 Y109.327 E52.6746
G1 X138.845 Y109.169 E52.68651
G1 X138.859 Y109.157 E52.68737
G1 X139.185 Y108.848 E52.70828
G1 X140.121 Y108.168 E52.76215
G1 X140.631 Y107.932 E52.78832
G1 X140.811 Y107.9 E52.79683
G1 X142.315 Y107.908 E52.86687
G1 X142.946 Y108.053 E52.89702
G1 X143.501 Y108.46 E52.92906
G1 X144.204 Y109.084 E52.97283
G1 X144.213 Y109.091 E52.97336
G1 X144.64 Y109.43 E52.99875
G1 X144.653 Y109.439 E52.99949
G1 X145.292 Y109.866 E53.03527
G1 X145.403 Y109.9 E53.04068
G1 X145.454 Y109.9 E53.04305
G1 X145.509 Y111.077 E53.09792
G1 X145.51 Y111.084 E53.09825
G1 X145.563 Y111.741 E53.12894
