;FLAVOR:Marlin
;TIME:6660
;Filament used: 4.78088m
;Layer height: 0.28
;MINX:96.703
;MINY:108.675
;MINZ:0.28
;MAXX:138.3
;MAXY:182.175
;MAXZ:55.72
;Generated with Cura_SteamEngine 5.4.0
M140 S50
M105
M190 S50
M104 S200
M105
M109 S200
M82 ;absolute extrusion mode
; Ender 3 Custom Start G-code
G92 E0 ; Reset Extruder
G28 ; Home all axes
G1 Z2.0 F3000 ; Move Z Axis up little to prevent scratching of Heat Bed
G1 X0.1 Y20 Z0.3 F5000.0 ; Move to start position
G1 X0.1 Y200.0 Z0.3 F1500.0 E15 ; Draw the first line
G1 X0.4 Y200.0 Z0.3 F5000.0 ; Move to side a little
G1 X0.4 Y20 Z0.3 F1500.0 E30 ; Draw the second line
G92 E0 ; Reset Extruder
G1 Z2.0 F3000 ; Move Z Axis up little to prevent scratching of Heat Bed
G1 X5 Y20 Z0.3 F5000.0 ; Move over to prevent blob squish
G92 E0
G92 E0
G1 F2700 E-5
;LAYER_COUNT:199
;LAYER:0
M107
G0 F6000 X102.094 Y111.69 Z0.28
;TYPE:SKIRT
G1 F2700 E0
G1 F1200 X102.854 Y111.081 E0.04535
G1 X103.665 Y110.541 E0.09072
G1 X104.457 Y110.107 E0.13277
G1 X105.413 Y109.689 E0.18136
G1 X106.334 Y109.381 E0.22658
G1 X107.15 Y109.183 E0.26567
G1 X108.553 Y108.899 E0.33233
G1 X109.513 Y108.75 E0.37757
G1 X110.405 Y108.688 E0.4192
G1 X111.012 Y108.675 E0.44747
G1 X123.604 Y108.675 E1.03381
G1 X124.487 Y108.688 E1.07493
G1 X125.459 Y108.747 E1.12027
G1 X126.407 Y108.889 E1.16491
G1 X126.906 Y108.999 E1.1887
G1 X128.312 Y109.344 E1.25611
G1 X129.212 Y109.608 E1.29979
G1 X130.152 Y109.977 E1.34681
G1 X131.023 Y110.413 E1.39216
G1 X131.851 Y110.925 E1.43749
G1 X132.631 Y111.507 E1.48281
G1 X133.356 Y112.155 E1.52809
G1 X133.976 Y112.812 E1.57015
G1 X134.622 Y113.635 E1.61887
G1 X135.152 Y114.452 E1.66422
G1 X135.59 Y115.275 E1.70763
G1 X135.85 Y115.865 E1.73765
G1 X136.281 Y116.92 E1.79072
G1 X136.605 Y117.838 E1.83605
G1 X136.847 Y118.781 E1.88138
G1 X137.002 Y119.71 E1.92524
G1 X137.081 Y120.848 E1.97835
G1 X137.099 Y121.927 E2.0286
G1 X137.099 Y123.567 E2.10497
G1 X137.086 Y124.369 E2.14232
G1 X137.011 Y127.05 E2.26721
G1 X137.013 Y129.563 E2.38422
G1 X137.086 Y132.108 E2.50278
G1 X137.228 Y134.57 E2.61761
G1 X137.441 Y137.1 E2.73583
G1 X137.724 Y139.565 E2.85137
G1 X138.179 Y142.718 E2.9997
G1 X138.272 Y143.669 E3.0442
G1 X138.288 Y144.163 E3.06721
G1 X138.3 Y145.566 E3.13255
G1 X138.287 Y146.542 E3.178
G1 X138.23 Y147.499 E3.22264
G1 X138.16 Y148.036 E3.24785
G1 X138.062 Y148.668 E3.27763
G1 X137.709 Y151.167 E3.39515
G1 X137.43 Y153.655 E3.51173
G1 X137.215 Y156.196 E3.63047
G1 X137.078 Y158.677 E3.74617
G1 X137.009 Y161.213 E3.86431
G1 X137.011 Y163.745 E3.98221
G1 X137.097 Y167.517 E4.15789
G1 X137.1 Y169.048 E4.22918
G1 X137.088 Y169.949 E4.27114
G1 X137.031 Y170.921 E4.31648
G1 X136.887 Y171.885 E4.36186
G1 X136.659 Y172.829 E4.40708
G1 X136.377 Y173.676 E4.44865
G1 X136.025 Y174.602 E4.49478
G1 X135.787 Y175.187 E4.52419
G1 X135.401 Y176.003 E4.56622
G1 X134.871 Y176.905 E4.61494
G1 X134.303 Y177.696 E4.66028
G1 X133.667 Y178.434 E4.70565
G1 X132.969 Y179.113 E4.75099
G1 X132.213 Y179.727 E4.79634
G1 X131.406 Y180.272 E4.84168
G1 X130.553 Y180.744 E4.88708
G1 X129.696 Y181.125 E4.93075
G1 X128.742 Y181.451 E4.97769
G1 X127.808 Y181.681 E5.02248
G1 X126.402 Y181.96 E5.08923
G1 X125.442 Y182.105 E5.13444
G1 X124.594 Y182.162 E5.17401
G1 X123.97 Y182.175 E5.20308
G1 X111.221 Y182.174 E5.79672
G1 X110.472 Y182.16 E5.83161
G1 X109.502 Y182.098 E5.87687
G1 X108.582 Y181.959 E5.92019
G1 X108.077 Y181.847 E5.94428
G1 X106.687 Y181.506 E6.01092
G1 X105.753 Y181.23 E6.05627
G1 X104.912 Y180.901 E6.09832
G1 X103.976 Y180.435 E6.14701
G1 X103.148 Y179.923 E6.19234
G1 X102.396 Y179.362 E6.23603
G1 X101.643 Y178.69 E6.28302
G1 X100.978 Y177.978 E6.32839
G1 X100.399 Y177.239 E6.3721
G1 X99.85 Y176.393 E6.41906
G1 X99.414 Y175.572 E6.46235
G1 X99.173 Y175.035 E6.48975
G1 X98.733 Y173.966 E6.54358
G1 X98.403 Y173.049 E6.58896
G1 X98.165 Y172.142 E6.63263
G1 X97.994 Y171.138 E6.68005
G1 X97.913 Y169.987 E6.73378
G1 X97.901 Y169.231 E6.76899
G1 X97.9 Y167.448 E6.85201
G1 X97.913 Y166.493 E6.89648
G1 X97.997 Y163.593 E7.03158
G1 X97.997 Y161.097 E7.1478
G1 X97.924 Y158.58 E7.26505
G1 X97.78 Y156.046 E7.38323
G1 X97.569 Y153.548 E7.49997
G1 X97.287 Y151.078 E7.61573
G1 X96.968 Y148.816 E7.7221
G1 X96.837 Y147.965 E7.76219
G1 X96.736 Y147.014 E7.80672
G1 X96.716 Y146.505 E7.83044
G1 X96.703 Y145.668 E7.86942
G1 X96.713 Y144.662 E7.91627
G1 X96.767 Y143.702 E7.96104
G1 X96.838 Y143.158 E7.98658
G1 X96.97 Y142.298 E8.0271
G1 X97.328 Y139.706 E8.14894
G1 X97.606 Y137.194 E8.26662
G1 X97.816 Y134.658 E8.38511
G1 X97.945 Y132.211 E8.49921
G1 X98.01 Y129.642 E8.61888
G1 X98.001 Y127.122 E8.73622
G1 X97.924 Y124.776 E8.84552
G1 X97.902 Y123.448 E8.90736
G1 X97.9 Y121.749 E8.98647
G1 X97.912 Y120.91 E9.02555
G1 X97.97 Y119.937 E9.07093
G1 X98.11 Y119.004 E9.11486
G1 X98.392 Y117.876 E9.16901
G1 X98.686 Y116.982 E9.21283
G1 X99.01 Y116.146 E9.25458
G1 X99.233 Y115.626 E9.28092
G1 X99.675 Y114.717 E9.32799
G1 X100.176 Y113.884 E9.37325
G1 X100.749 Y113.096 E9.41862
G1 X101.391 Y112.362 E9.46402
G1 X102.094 Y111.69 E9.50931
G0 F6000 X102.345 Y112.002
G1 F1200 X103.076 Y111.414 E9.55299
G1 X103.857 Y110.892 E9.59673
G1 X104.649 Y110.458 E9.63879
G1 X105.54 Y110.068 E9.68408
G1 X106.429 Y109.77 E9.72774
G1 X107.23 Y109.575 E9.76612
G1 X108.615 Y109.294 E9.83193
G1 X109.541 Y109.149 E9.87557
G1 X110.414 Y109.088 E9.91632
G1 X111.021 Y109.075 E9.94459
G1 X123.598 Y109.075 E10.53023
G1 X124.463 Y109.087 E10.57051
G1 X125.4 Y109.143 E10.61422
G1 X126.321 Y109.28 E10.65758
G1 X126.811 Y109.388 E10.68094
G1 X128.199 Y109.728 E10.74749
G1 X129.099 Y109.992 E10.79116
G1 X129.973 Y110.335 E10.83488
G1 X130.813 Y110.754 E10.87859
G1 X131.612 Y111.246 E10.92228
G1 X132.365 Y111.806 E10.96598
G1 X133.065 Y112.43 E11.00964
G1 X133.685 Y113.087 E11.05171
G1 X134.287 Y113.853 E11.09707
G1 X134.799 Y114.64 E11.14079
G1 X135.224 Y115.437 E11.18285
G1 X135.48 Y116.016 E11.21233
G1 X135.904 Y117.054 E11.26454
G1 X136.218 Y117.938 E11.30822
G1 X136.452 Y118.847 E11.35193
G1 X136.607 Y119.776 E11.39578
G1 X136.681 Y120.855 E11.44614
G1 X136.699 Y121.934 E11.49639
G1 X136.699 Y123.56 E11.57211
G1 X136.686 Y124.358 E11.60927
G1 X136.611 Y127.039 E11.73416
G1 X136.613 Y129.563 E11.85168
G1 X136.686 Y132.119 E11.97075
G1 X136.829 Y134.604 E12.08665
G1 X137.043 Y137.134 E12.20488
G1 X137.328 Y139.622 E12.32149
G1 X137.781 Y142.757 E12.46899
G1 X137.872 Y143.682 E12.51227
G1 X137.888 Y144.166 E12.53482
G1 X137.9 Y145.561 E12.59978
G1 X137.888 Y146.518 E12.64434
G1 X137.833 Y147.448 E12.68772
G1 X137.765 Y147.975 E12.71246
G1 X137.667 Y148.607 E12.74224
G1 X137.313 Y151.111 E12.86
G1 X137.031 Y153.621 E12.97761
G1 X136.817 Y156.162 E13.09635
G1 X136.678 Y158.666 E13.21313
G1 X136.609 Y161.202 E13.33126
G1 X136.611 Y163.745 E13.44967
G1 X136.697 Y167.518 E13.6254
G1 X136.7 Y169.043 E13.69641
G1 X136.689 Y169.926 E13.73753
G1 X136.635 Y170.863 E13.78124
G1 X136.498 Y171.792 E13.82496
G1 X136.279 Y172.703 E13.86859
G1 X136.003 Y173.534 E13.90936
G1 X135.655 Y174.451 E13.95503
G1 X135.425 Y175.016 E13.98344
G1 X135.039 Y175.832 E14.02547
G1 X134.546 Y176.672 E14.07082
G1 X133.999 Y177.436 E14.11458
G1 X133.388 Y178.148 E14.15827
G1 X132.716 Y178.803 E14.20196
G1 X131.989 Y179.396 E14.24565
G1 X131.212 Y179.922 E14.28934
G1 X130.391 Y180.378 E14.33307
G1 X129.534 Y180.759 E14.37674
G1 X128.646 Y181.063 E14.42044
G1 X127.73 Y181.289 E14.46438
G1 X126.342 Y181.565 E14.53027
G1 X125.415 Y181.706 E14.57393
G1 X124.586 Y181.762 E14.61262
G1 X123.97 Y181.775 E14.64131
G1 X111.228 Y181.774 E15.23463
G1 X110.497 Y181.761 E15.26868
G1 X109.562 Y181.702 E15.3123
G1 X108.642 Y181.563 E15.35563
G1 X108.172 Y181.459 E15.37804
G1 X106.8 Y181.122 E15.44383
G1 X105.899 Y180.857 E15.48756
G1 X105.058 Y180.528 E15.52961
G1 X104.186 Y180.094 E15.57496
G1 X103.387 Y179.602 E15.61866
G1 X102.635 Y179.041 E15.66234
G1 X101.935 Y178.416 E15.70604
G1 X101.293 Y177.731 E15.74976
G1 X100.714 Y176.992 E15.79347
G1 X100.203 Y176.205 E15.83716
G1 X99.779 Y175.408 E15.8792
G1 X99.543 Y174.882 E15.90605
G1 X99.109 Y173.83 E15.95904
G1 X98.79 Y172.947 E16.00275
G1 X98.552 Y172.04 E16.04642
G1 X98.393 Y171.11 E16.09035
G1 X98.313 Y169.981 E16.14305
G1 X98.301 Y169.231 E16.17798
G1 X98.3 Y167.453 E16.26077
G1 X98.313 Y166.505 E16.30492
G1 X98.397 Y163.605 E16.44001
G1 X98.397 Y161.097 E16.55679
G1 X98.324 Y158.568 E16.6746
G1 X98.179 Y156.012 E16.79381
G1 X97.967 Y153.514 E16.91055
G1 X97.683 Y151.022 E17.02734
G1 X97.364 Y148.76 E17.13371
G1 X97.235 Y147.922 E17.17319
G1 X97.136 Y146.998 E17.21646
G1 X97.116 Y146.499 E17.23971
G1 X97.103 Y145.672 E17.27823
G1 X97.112 Y144.684 E17.32423
G1 X97.164 Y143.753 E17.36765
G1 X97.233 Y143.219 E17.39273
G1 X97.365 Y142.359 E17.43324
G1 X97.726 Y139.75 E17.55588
G1 X98.004 Y137.238 E17.67357
G1 X98.214 Y134.691 E17.79257
G1 X98.345 Y132.221 E17.90774
G1 X98.41 Y129.652 E18.0274
G1 X98.401 Y127.121 E18.14526
G1 X98.324 Y124.769 E18.25484
G1 X98.302 Y123.448 E18.31636
G1 X98.3 Y121.754 E18.39524
G1 X98.311 Y120.933 E18.43347
G1 X98.366 Y119.996 E18.47718
G1 X98.506 Y119.063 E18.52111
G1 X98.78 Y117.974 E18.57339
G1 X99.059 Y117.127 E18.61492
G1 X99.378 Y116.304 E18.65602
G1 X99.601 Y115.784 E18.68237
G1 X100.018 Y114.923 E18.72691
G1 X100.5 Y114.119 E18.77056
G1 X101.051 Y113.359 E18.81427
G1 X101.668 Y112.651 E18.858
G1 X102.345 Y112.002 E18.90167
G0 F6000 X102.596 Y112.313
G1 F1200 X103.299 Y111.746 E18.94373
G1 X104.049 Y111.243 E18.98578
G1 X104.841 Y110.809 E19.02783
G1 X105.668 Y110.447 E19.06987
G1 X106.524 Y110.159 E19.11192
G1 X107.31 Y109.967 E19.1496
G1 X108.677 Y109.689 E19.21455
G1 X109.569 Y109.548 E19.2566
G1 X110.423 Y109.488 E19.29647
G1 X111.03 Y109.475 E19.32474
G1 X123.593 Y109.475 E19.90972
G1 X124.44 Y109.486 E19.94917
G1 X125.342 Y109.539 E19.99124
G1 X126.235 Y109.671 E20.03327
G1 X126.716 Y109.777 E20.05621
G1 X128.087 Y110.112 E20.12193
G1 X128.954 Y110.365 E20.16398
G1 X129.795 Y110.693 E20.20601
G1 X130.604 Y111.095 E20.24808
G1 X131.374 Y111.567 E20.29013
G1 X132.099 Y112.105 E20.33217
G1 X132.774 Y112.705 E20.37423
G1 X133.394 Y113.362 E20.41629
G1 X133.952 Y114.072 E20.45834
G1 X134.446 Y114.828 E20.50039
G1 X134.871 Y115.625 E20.54245
G1 X135.11 Y116.167 E20.57003
G1 X135.527 Y117.189 E20.62143
G1 X135.831 Y118.039 E20.66346
G1 X136.058 Y118.913 E20.70551
G1 X136.208 Y119.804 E20.74758
G1 X136.281 Y120.862 E20.79697
G1 X136.299 Y121.941 E20.84722
G1 X136.299 Y123.553 E20.92228
G1 X136.286 Y124.347 E20.95925
G1 X136.211 Y127.028 E21.08414
G1 X136.213 Y129.563 E21.20218
G1 X136.286 Y132.13 E21.32176
G1 X136.43 Y134.638 E21.43874
G1 X136.645 Y137.168 E21.55697
G1 X136.932 Y139.679 E21.67465
G1 X137.383 Y142.796 E21.8213
G1 X137.472 Y143.695 E21.86337
G1 X137.488 Y144.169 E21.88545
G1 X137.5 Y145.556 E21.95004
G1 X137.489 Y146.495 E21.99377
G1 X137.436 Y147.397 E22.03584
G1 X137.37 Y147.914 E22.06011
G1 X137.272 Y148.546 E22.08989
G1 X136.917 Y151.055 E22.20788
G1 X136.632 Y153.588 E22.32657
G1 X136.419 Y156.129 E22.44531
G1 X136.278 Y158.655 E22.56311
G1 X136.209 Y161.191 E22.68124
G1 X136.211 Y163.745 E22.80017
G1 X136.297 Y167.519 E22.97595
G1 X136.3 Y169.038 E23.04668
G1 X136.29 Y169.903 E23.08696
G1 X136.239 Y170.805 E23.12903
G1 X136.109 Y171.699 E23.17109
G1 X135.899 Y172.577 E23.21313
G1 X135.629 Y173.392 E23.25311
G1 X135.285 Y174.3 E23.29832
G1 X135.063 Y174.845 E23.32572
G1 X134.677 Y175.661 E23.36776
G1 X134.22 Y176.44 E23.40981
G1 X133.695 Y177.176 E23.45191
G1 X133.108 Y177.862 E23.49395
G1 X132.463 Y178.493 E23.53596
G1 X131.764 Y179.065 E23.57802
G1 X131.017 Y179.573 E23.62009
G1 X130.228 Y180.013 E23.66215
G1 X129.404 Y180.381 E23.70417
G1 X128.55 Y180.675 E23.74623
G1 X127.652 Y180.897 E23.7893
G1 X126.281 Y181.17 E23.8544
G1 X125.388 Y181.307 E23.89646
G1 X124.577 Y181.362 E23.93431
G1 X123.97 Y181.375 E23.96259
G1 X111.235 Y181.374 E24.55558
G1 X110.522 Y181.362 E24.58879
G1 X109.621 Y181.306 E24.63082
G1 X108.728 Y181.172 E24.67287
G1 X108.267 Y181.07 E24.69485
G1 X106.912 Y180.738 E24.75981
G1 X106.045 Y180.484 E24.80188
G1 X105.204 Y180.155 E24.84393
G1 X104.395 Y179.753 E24.886
G1 X103.626 Y179.281 E24.92801
G1 X102.901 Y178.742 E24.97008
G1 X102.226 Y178.142 E25.01213
G1 X101.607 Y177.484 E25.0542
G1 X101.049 Y176.774 E25.09625
G1 X100.556 Y176.017 E25.13831
G1 X100.132 Y175.22 E25.18035
G1 X99.913 Y174.729 E25.20538
G1 X99.485 Y173.694 E25.25753
G1 X99.177 Y172.845 E25.29959
G1 X98.946 Y171.972 E25.34164
G1 X98.792 Y171.082 E25.3837
G1 X98.713 Y169.975 E25.43537
G1 X98.701 Y169.231 E25.47002
G1 X98.7 Y167.459 E25.55253
G1 X98.713 Y166.517 E25.5964
G1 X98.797 Y163.617 E25.73149
G1 X98.797 Y161.097 E25.84884
G1 X98.724 Y158.557 E25.96716
G1 X98.578 Y155.978 E26.08744
G1 X98.365 Y153.48 E26.20418
G1 X98.079 Y150.966 E26.322
G1 X97.76 Y148.704 E26.42837
G1 X97.633 Y147.879 E26.46723
G1 X97.536 Y146.982 E26.50925
G1 X97.516 Y146.493 E26.53203
G1 X97.503 Y145.675 E26.57013
G1 X97.511 Y144.706 E26.61525
G1 X97.561 Y143.804 E26.65732
G1 X97.628 Y143.28 E26.68192
G1 X97.76 Y142.42 E26.72243
G1 X98.124 Y139.794 E26.84588
G1 X98.402 Y137.282 E26.96356
G1 X98.612 Y134.724 E27.08307
G1 X98.745 Y132.231 E27.19932
G1 X98.81 Y129.662 E27.31898
G1 X98.801 Y127.12 E27.43735
G1 X98.724 Y124.762 E27.54721
G1 X98.702 Y123.448 E27.6084
G1 X98.7 Y121.759 E27.68705
G1 X98.71 Y120.956 E27.72444
G1 X98.762 Y120.054 E27.76651
G1 X98.894 Y119.161 E27.80855
G1 X99.168 Y118.072 E27.86083
G1 X99.432 Y117.272 E27.90006
G1 X99.746 Y116.462 E27.94051
G1 X99.969 Y115.942 E27.96686
G1 X100.361 Y115.128 E28.00893
G1 X100.824 Y114.353 E28.05097
G1 X101.353 Y113.621 E28.09302
G1 X101.945 Y112.939 E28.13507
G1 X102.596 Y112.313 E28.17713
G1 F2700 E23.17713
G0 F6000 X109.458 Y120.181
G1 F2700 E28.17713
G1 F1200 X109.7 Y120.228 E28.18861
G1 X109.7 Y125.061 E28.41365
G1 X109.446 Y125.101 E28.42562
G1 X109.233 Y124.431 E28.45836
G1 X109.23 Y124.424 E28.45871
G1 X109.101 Y124.065 E28.47648
G1 X109.1 Y121.112 E28.61398
G1 X109.188 Y120.841 E28.62725
G1 X109.458 Y120.181 E28.66045
G1 F2700 E23.66045
G0 F6000 X110.047 Y119.022
G0 X124.953 Y119.022
G0 X125.3 Y120.283
G1 F2700 E28.66045
G1 F1200 X125.546 Y120.238 E28.6721
G1 X125.64 Y120.486 E28.68445
G1 X125.643 Y120.494 E28.68485
G1 X125.899 Y121.094 E28.71522
G1 X125.9 Y124.04 E28.8524
G1 X125.555 Y125.148 E28.90644
G1 X125.3 Y125.11 E28.91844
G1 X125.3 Y120.283 E29.14321
G1 F2700 E24.14321
G0 F6000 X125.55 Y141.47
G1 F2700 E29.14321
G1 F1200 X125.695 Y141.878 E29.16337
G1 X125.7 Y141.892 E29.16406
G1 X125.853 Y142.236 E29.18159
G1 X125.864 Y142.258 E29.18274
G1 X126.202 Y142.824 E29.21343
G1 X126.209 Y142.834 E29.214
G1 X126.447 Y143.181 E29.23359
G1 X126.45 Y143.186 E29.23387
G1 X126.824 Y143.701 E29.2635
G1 X127.099 Y144.307 E29.29449
G1 X127.1 Y146.327 E29.38855
G1 X126.932 Y147.001 E29.4209
G1 X126.082 Y148.246 E29.49109
G1 X126.075 Y148.257 E29.4917
G1 X125.753 Y148.803 E29.52121
G1 X125.745 Y148.818 E29.522
G1 X125.627 Y149.062 E29.53463
G1 X125.621 Y149.077 E29.53538
G1 X125.546 Y149.27 E29.54502
G1 X125.3 Y149.224 E29.55667
G1 X125.3 Y141.513 E29.91573
G1 X125.55 Y141.47 E29.92754
G0 F6000 X125.7 Y142.763
G1 F1200 X125.859 Y143.029 E29.94197
G1 X125.879 Y143.06 E29.94369
G1 X126.117 Y143.407 E29.96328
G1 X126.127 Y143.421 E29.96408
G1 X126.476 Y143.902 E29.99176
G1 X126.699 Y144.393 E30.01687
G1 X126.7 Y146.278 E30.10464
G1 X126.561 Y146.833 E30.13128
G1 X125.751 Y148.021 E30.19823
G1 X125.73 Y148.054 E30.20005
G1 X125.7 Y148.105 E30.20281
G1 X125.7 Y142.763 E30.45156
G0 F6000 X126.1 Y144.065
G1 F1200 X126.128 Y144.103 E30.45375
G1 X126.299 Y144.481 E30.47307
G1 X126.3 Y146.229 E30.55447
G1 X126.191 Y146.667 E30.57548
G1 X126.1 Y146.8 E30.58299
G1 X126.1 Y144.065 E30.71034
G1 F2700 E25.71034
G0 F6000 X118.25 Y142.419
G1 F2700 E30.71034
G1 F1200 X118.25 Y148.255 E30.98209
G1 X117.754 Y148.239 E31.0052
G1 X117.738 Y148.239 E31.00594
G1 X117.388 Y148.254 E31.02225
G1 X117.38 Y148.255 E31.02263
G1 X116.987 Y148.288 E31.04099
G1 X116.98 Y148.288 E31.04132
G1 X116.75 Y148.316 E31.05211
G1 X116.75 Y142.37 E31.32898
G1 X116.983 Y142.399 E31.33991
G1 X116.997 Y142.401 E31.34057
