;FLAVOR:Marlin
;TIME:7385
;Filament used: 5.99376m
;Layer height: 0.28
;MINX:73.91
;MINY:92.04
;MINZ:0.336
;MAXX:161.485
;MAXY:142.098
;MAXZ:52.986
;Generated with Cura_SteamEngine 5.4.0
M140 S50
M105
M190 S50
M104 S200
M105
M109 S200
M82 ;absolute extrusion mode
; Ender 3 Custom Start G-code
G92 E0 ; Reset Extruder
G28 ; Home all axes
G1 Z2.0 F3000 ; Move Z Axis up little to prevent scratching of Heat Bed
G1 X0.1 Y20 Z0.3 F5000.0 ; Move to start position
G1 X0.1 Y200.0 Z0.3 F1500.0 E15 ; Draw the first line
G1 X0.4 Y200.0 Z0.3 F5000.0 ; Move to side a little
G1 X0.4 Y20 Z0.3 F1500.0 E30 ; Draw the second line
G92 E0 ; Reset Extruder
G1 Z2.0 F3000 ; Move Z Axis up little to prevent scratching of Heat Bed
G1 X5 Y20 Z0.3 F5000.0 ; Move over to prevent blob squish
G92 E0
G92 E0
G1 F2700 E-5
;LAYER_COUNT:184
;LAYER:-5
M107
G0 F9000 X80.169 Y99.538 Z0.336
;TYPE:SUPPORT-INTERFACE
G1 F2700 E0
G1 F1125 X81.009 Y98.883 E0.11904
G1 X81.9 Y98.283 E0.23908
G1 X82.967 Y97.684 E0.37583
G1 X83.786 Y97.299 E0.47697
G1 X84.779 Y96.915 E0.59595
G1 X85.785 Y96.605 E0.71359
G1 X86.855 Y96.359 E0.83628
G1 X87.879 Y96.203 E0.95204
G1 X89.135 Y96.108 E1.0928
G1 X89.536 Y96.101 E1.13762
G1 X95.382 Y96.101 E1.79094
G1 X96.52 Y96.149 E1.91823
G1 X97.583 Y96.271 E2.0378
G1 X98.611 Y96.468 E2.15478
G1 X99.679 Y96.754 E2.27833
G1 X100.678 Y97.102 E2.39656
G1 X101.568 Y97.48 E2.50462
G1 X102.58 Y98.006 E2.63208
G1 X103.357 Y98.479 E2.73373
G1 X103.534 Y98.597 E2.75751
G1 X104.142 Y98.947 E2.83591
G1 X104.757 Y99.203 E2.91035
G1 X105.394 Y99.382 E2.9843
G1 X106.087 Y99.485 E3.06259
G1 X106.52 Y99.502 E3.11102
G1 X116.489 Y99.502 E4.2251
G1 X117.153 Y99.461 E4.29944
G1 X117.834 Y99.331 E4.37692
G1 X118.487 Y99.118 E4.45368
G1 X119.096 Y98.829 E4.52901
G1 X119.46 Y98.608 E4.5766
G1 X120.081 Y98.205 E4.65933
G1 X121.016 Y97.685 E4.7789
G1 X121.836 Y97.299 E4.88018
G1 X122.829 Y96.915 E4.99916
G1 X123.835 Y96.605 E5.1168
G1 X124.905 Y96.359 E5.2395
G1 X125.929 Y96.203 E5.35525
G1 X127.184 Y96.108 E5.49591
G1 X128.002 Y96.1 E5.58733
G1 X128.695 Y96.055 E5.66493
G1 X129.523 Y95.878 E5.75956
G1 X130.612 Y95.558 E5.8864
G1 X131.504 Y95.358 E5.98856
G1 X132.303 Y95.235 E6.07891
G1 X132.985 Y95.09 E6.15683
G1 X133.811 Y94.782 E6.25534
G1 X134.377 Y94.519 E6.32509
G1 X135.505 Y94.049 E6.46165
G1 X136.353 Y93.765 E6.5616
G1 X137.552 Y93.456 E6.69997
G1 X138.173 Y93.331 E6.77076
G1 X139.316 Y93.175 E6.89968
G1 X140.962 Y93.101 E7.08381
G1 X142.444 Y93.11 E7.24943
G1 X143.401 Y93.151 E7.35648
G1 X144.624 Y93.291 E7.49405
G1 X145.6 Y93.478 E7.6051
G1 X146.349 Y93.65 E7.69099
G1 X147.408 Y93.942 E7.81375
G1 X148.407 Y94.297 E7.93223
G1 X149.398 Y94.734 E8.05327
G1 X150.337 Y95.232 E8.17205
G1 X151.099 Y95.703 E8.27216
G1 X151.665 Y96.096 E8.34917
G1 X152.317 Y96.576 E8.43965
G1 X152.561 Y96.775 E8.47483
G1 X153.113 Y97.165 E8.55037
G1 X153.778 Y97.58 E8.63797
G1 X154.626 Y98.194 E8.75497
G1 X155.439 Y98.877 E8.87363
G1 X156.087 Y99.499 E8.97401
G1 X156.799 Y100.284 E9.09244
G1 X157.462 Y101.134 E9.21291
G1 X158.062 Y102.025 E9.33296
G1 X158.661 Y103.092 E9.46971
G1 X159.043 Y103.904 E9.56999
G1 X159.426 Y104.892 E9.68841
G1 X159.766 Y105.997 E9.81761
G1 X160.012 Y107.115 E9.94554
G1 X160.164 Y108.195 E10.06742
G1 X160.244 Y109.353 E10.19714
G1 X160.293 Y109.875 E10.25574
G1 X160.336 Y110.206 E10.29304
G1 X160.412 Y111.273 E10.41258
G1 X160.419 Y111.673 E10.45729
G1 X160.42 Y114.711 E10.7968
G1 X160.383 Y115.712 E10.90874
G1 X160.235 Y117.183 E11.07396
G1 X160.239 Y117.841 E11.1475
G1 X160.29 Y118.395 E11.20967
G1 X160.335 Y118.749 E11.24955
G1 X160.412 Y119.823 E11.36988
G1 X160.419 Y120.224 E11.4147
G1 X160.42 Y123.261 E11.7541
G1 X160.383 Y124.262 E11.86604
G1 X160.225 Y125.848 E12.04416
G1 X160.195 Y126.47 E12.11375
G1 X160.075 Y127.512 E12.23097
G1 X159.878 Y128.539 E12.34783
G1 X159.596 Y129.596 E12.47009
G1 X159.244 Y130.607 E12.58972
G1 X158.869 Y131.491 E12.69704
G1 X158.34 Y132.508 E12.82515
G1 X157.874 Y133.274 E12.92535
G1 X157.206 Y134.219 E13.05467
G1 X156.469 Y135.098 E13.18287
G1 X155.847 Y135.744 E13.28308
G1 X155.052 Y136.465 E13.40302
G1 X154.212 Y137.12 E13.52206
G1 X153.318 Y137.72 E13.64239
G1 X152.604 Y138.254 E13.74203
G1 X151.734 Y138.933 E13.86536
G1 X150.846 Y139.529 E13.98488
G1 X149.841 Y140.102 E14.11416
G1 X148.913 Y140.537 E14.2287
G1 X148.134 Y140.869 E14.32333
G1 X147.196 Y141.226 E14.43549
G1 X146.258 Y141.513 E14.54511
G1 X144.83 Y141.819 E14.70832
G1 X144.222 Y141.917 E14.77714
G1 X143.31 Y142.031 E14.87986
G1 X143.03 Y142.054 E14.91125
G1 X141.841 Y142.098 E15.04422
G1 X140.644 Y142.098 E15.17799
G1 X139.512 Y142.058 E15.30457
G1 X138.367 Y141.926 E15.43338
G1 X137.503 Y141.765 E15.5316
G1 X136.375 Y141.477 E15.6617
G1 X135.096 Y141.026 E15.81326
G1 X134.283 Y140.694 E15.9114
G1 X132.684 Y139.953 E16.10835
G1 X131.73 Y139.677 E16.21933
G1 X130.944 Y139.523 E16.30884
G1 X130.077 Y139.295 E16.40903
G1 X129.743 Y139.188 E16.44822
G1 X129.122 Y139.018 E16.52018
G1 X128.431 Y138.916 E16.59823
G1 X128.011 Y138.9 E16.64521
G1 X127.618 Y138.899 E16.68912
G1 X126.48 Y138.851 E16.81641
G1 X125.416 Y138.729 E16.9361
G1 X124.389 Y138.532 E17.05296
G1 X123.321 Y138.246 E17.17652
G1 X122.313 Y137.894 E17.29584
G1 X121.526 Y137.56 E17.39138
G1 X120.555 Y137.069 E17.51298
G1 X119.637 Y136.517 E17.63269
G1 X119.466 Y136.403 E17.65566
G1 X118.865 Y136.056 E17.73321
G1 X118.243 Y135.797 E17.80851
G1 X117.606 Y135.618 E17.88245
G1 X116.913 Y135.515 E17.96075
G1 X116.48 Y135.498 E18.00918
G1 X106.511 Y135.498 E19.12325
G1 X105.847 Y135.539 E19.1976
G1 X105.179 Y135.665 E19.27357
G1 X104.513 Y135.882 E19.35185
G1 X103.916 Y136.165 E19.42568
G1 X103.54 Y136.392 E19.47476
G1 X102.919 Y136.795 E19.5575
G1 X101.984 Y137.315 E19.67706
G1 X101.167 Y137.699 E19.77794
G1 X100.009 Y138.14 E19.91642
G1 X99.275 Y138.367 E20.00228
G1 X99 Y138.439 E20.03405
G1 X98.097 Y138.641 E20.13746
G1 X97.071 Y138.797 E20.25344
G1 X95.815 Y138.892 E20.3942
G1 X95.311 Y138.9 E20.45053
G1 X89.568 Y138.899 E21.09233
G1 X88.43 Y138.851 E21.21962
G1 X87.366 Y138.729 E21.33931
G1 X86.339 Y138.532 E21.45617
G1 X85.271 Y138.246 E21.57973
G1 X84.263 Y137.894 E21.69905
G1 X83.476 Y137.56 E21.79459
G1 X82.505 Y137.069 E21.91619
G1 X81.603 Y136.527 E22.03379
G1 X80.649 Y135.854 E22.16426
G1 X79.777 Y135.119 E22.29171
G1 X79.124 Y134.491 E22.39296
G1 X78.413 Y133.706 E22.51132
G1 X77.758 Y132.866 E22.63036
G1 X77.154 Y131.969 E22.75121
G1 X76.556 Y130.903 E22.88781
G1 X76.175 Y130.09 E22.98814
G1 X75.79 Y129.096 E23.10727
G1 X75.454 Y128.004 E23.23495
G1 X75.205 Y126.867 E23.36503
G1 X75.076 Y125.985 E23.46464
G1 X74.983 Y124.74 E23.60416
G1 X74.975 Y124.242 E23.65982
G1 X74.976 Y110.714 E25.17163
G1 X75.012 Y109.715 E25.28335
G1 X75.146 Y108.49 E25.42106
G1 X75.343 Y107.464 E25.53782
G1 X75.625 Y106.407 E25.66007
G1 X75.977 Y105.396 E25.77971
G1 X76.352 Y104.512 E25.88702
G1 X76.881 Y103.495 E26.01513
G1 X77.347 Y102.729 E26.11533
G1 X78.015 Y101.784 E26.24466
G1 X78.752 Y100.905 E26.37285
G1 X79.375 Y100.258 E26.47323
G1 X80.169 Y99.538 E26.59301
G0 F9000 X79.929 Y100.294
G1 F1125 X114.733 Y135.097 E32.0935
G1 F2700 E27.0935
G0 F9000 X112.47 Y135.097
G1 F2700 E32.0935
G1 F1125 X78.819 Y101.446 E37.41184
G1 F2700 E32.41184
G0 F9000 X77.837 Y102.727
G1 F2700 E37.41184
G1 F1125 X110.207 Y135.097 E42.52773
G1 F2700 E37.52773
G0 F9000 X107.944 Y135.097
G1 F2700 E42.52773
G1 F1125 X76.993 Y104.146 E47.41935
G1 F2700 E42.41935
G0 F9000 X76.291 Y105.706
G1 F2700 E47.41935
G1 F1125 X105.735 Y135.15 E52.0728
G1 F2700 E47.0728
G0 F9000 X104.002 Y135.681
G1 F2700 E52.0728
G1 F1125 X75.762 Y107.44 E56.53604
G1 F2700 E51.53604
G0 F9000 X75.449 Y109.39
G1 F2700 E56.53604
G1 F1125 X102.582 Y136.523 E60.82425
G1 F2700 E55.82425
G0 F9000 X101.089 Y137.293
G1 F2700 E60.82425
G1 F1125 X75.375 Y111.579 E64.8882
G1 F2700 E59.8882
G0 F9000 X75.375 Y113.842
G1 F2700 E64.8882
G1 F1125 X99.431 Y137.898 E68.69011
G1 F2700 E63.69011
G0 F9000 X97.584 Y138.313
G1 F2700 E68.69011
G1 F1125 X75.375 Y116.104 E72.20011
G1 F2700 E67.20011
G0 F9000 X75.374 Y118.366
G1 F2700 E72.20011
G1 F1125 X95.503 Y138.496 E75.38146
G1 F2700 E70.38146
G0 F9000 X93.244 Y138.498
G1 F2700 E75.38146
G1 F1125 X75.374 Y120.629 E78.20563
G1 F2700 E73.20563
G0 F9000 X75.374 Y122.892
G1 F2700 E78.20563
G1 F1125 X90.98 Y138.498 E80.67206
G1 F2700 E75.67206
G0 F9000 X88.679 Y138.459
G1 F2700 E80.67206
G1 F1125 X75.418 Y125.198 E82.76789
G1 F2700 E77.76789
G0 F9000 X75.836 Y127.879
G1 F2700 E82.76789
G1 F1125 X85.976 Y138.019 E84.37045
G1 F2700 E79.37045
G0 F9000 X81.981 Y136.287
G1 F2700 E84.37045
G1 F1125 X77.582 Y131.888 E85.06569
G1 F2700 E80.06569
G0 F9000 X76.16 Y132.382
G0 X75.2 Y130.517
G0 X74.719 Y129.258
G0 X74.191 Y127.236
G0 X73.999 Y125.921
G0 X73.91 Y124.247
G0 X73.949 Y109.643
G0 X74.096 Y108.317
G0 X74.548 Y106.29
G0 X74.988 Y105
G0 X75.87 Y103.12
G0 X76.579 Y101.961
G0 X77.85 Y100.317
G0 X78.773 Y99.36
G0 X80.269 Y98.108
G0 X81.165 Y99.267
G1 F2700 E85.06569
G1 F1125 X117.024 Y135.125 E90.73291
G1 F2700 E85.73291
G0 F9000 X121.011 Y136.85
G1 F2700 E90.73291
G1 F1125 X82.541 Y98.381 E96.81279
G1 F2700 E91.81279
G0 F9000 X84.049 Y97.625
G1 F2700 E96.81279
G1 F1125 X124.585 Y138.161 E103.21927
G1 F2700 E98.21927
G0 F9000 X127.164 Y138.478
G1 F2700 E103.21927
G1 F1125 X85.727 Y97.041 E109.76814
G1 F2700 E104.76814
G0 F9000 X87.599 Y96.65
G1 F2700 E109.76814
G1 F1125 X129.713 Y138.764 E116.42401
G1 F2700 E111.42401
G0 F9000 X132.777 Y139.565
G1 F2700 E116.42401
G1 F1125 X89.712 Y96.5 E123.23018
G1 F2700 E118.23018
G0 F9000 X91.974 Y96.5
G1 F2700 E123.23018
G1 F1125 X136.593 Y141.118 E130.28187
G1 F2700 E125.28187
G0 F9000 X139.375 Y141.638
G1 F2700 E130.28187
G1 F1125 X94.237 Y96.5 E137.41566
G1 F2700 E132.41566
G0 F9000 X96.554 Y96.554
G1 F2700 E137.41566
G1 F1125 X141.697 Y141.697 E144.55025
G1 F2700 E139.55025
G0 F9000 X143.825 Y141.562
G1 F2700 E144.55025
G1 F1125 X99.34 Y97.077 E151.58084
G1 F2700 E146.58084
G0 F9000 X99.995 Y95.736
G0 X101.913 Y96.469
G0 X102.595 Y96.819
G0 X104.12 Y97.707
G0 X103.649 Y99.123
G1 F2700 E151.58084
G1 F1125 X145.739 Y141.214 E158.23299
G1 F2700 E153.23299
G0 F9000 X147.477 Y140.689
G1 F2700 E158.23299
G1 F1125 X106.69 Y99.902 E164.67914
G1 F2700 E159.67914
G0 F9000 X108.953 Y99.902
G1 F2700 E164.67914
G1 F1125 X149.071 Y140.02 E171.01955
G1 F2700 E166.01955
G0 F9000 X150.55 Y139.236
G1 F2700 E171.01955
G1 F1125 X111.215 Y99.902 E177.23614
G1 F2700 E172.23614
G0 F9000 X113.478 Y99.902
G1 F2700 E177.23614
G1 F1125 X151.883 Y138.307 E183.30582
G1 F2700 E178.30582
G0 F9000 X153.173 Y137.334
G1 F2700 E183.30582
G1 F1125 X115.741 Y99.902 E189.22173
G1 F2700 E184.22173
G0 F9000 X117.839 Y99.737
G1 F2700 E189.22173
G1 F1125 X154.493 Y136.391 E195.01468
G1 F2700 E190.01468
G0 F9000 X155.692 Y135.327
G1 F2700 E195.01468
G1 F1125 X119.448 Y99.083 E200.74283
G1 F2700 E195.74283
G0 F9000 X120.857 Y98.23
G1 F2700 E200.74283
G1 F1125 X156.757 Y134.13 E206.41661
G1 F2700 E201.41661
G0 F9000 X157.692 Y132.802
G1 F2700 E206.41661
G1 F1125 X122.4 Y97.51 E211.9943
G1 F2700 E206.9943
G0 F9000 X124.106 Y96.953
G1 F2700 E211.9943
G1 F1125 X158.495 Y131.342 E217.42928
G1 F2700 E212.42928
G0 F9000 X159.13 Y129.715
G1 F2700 E217.42928
G1 F1125 X126.014 Y96.598 E222.66315
G1 F2700 E217.66315
G0 F9000 X128.169 Y96.491
G1 F2700 E222.66315
G1 F1125 X159.59 Y127.912 E227.62905
G1 F2700 E222.62905
G0 F9000 X159.823 Y125.881
G1 F2700 E227.62905
G1 F1125 X130.074 Y96.133 E232.33063
G1 F2700 E227.33063
G0 F9000 X131.905 Y95.701
G1 F2700 E232.33063
G1 F1125 X159.999 Y123.796 E236.7708
G1 F2700 E231.7708
G0 F9000 X160.018 Y121.552
G1 F2700 E236.7708
G1 F1125 X133.711 Y95.245 E240.92846
G1 F2700 E235.92846
G0 F9000 X135.298 Y94.569
G1 F2700 E240.92846
G1 F1125 X159.968 Y119.239 E244.82741
G1 F2700 E239.82741
G0 F9000 X159.864 Y116.872
G1 F2700 E244.82741
G1 F1125 X137.003 Y94.011 E248.44046
G1 F2700 E243.44046
G0 F9000 X138.892 Y93.637
G1 F2700 E248.44046
G1 F1125 X160.017 Y114.762 E251.77914
G1 F2700 E246.77914
G0 F9000 X160.018 Y112.501
G1 F2700 E251.77914
G1 F1125 X141.019 Y93.502 E254.78182
G1 F2700 E249.78182
G0 F9000 X143.328 Y93.548
G1 F2700 E254.78182
G1 F1125 X159.924 Y110.143 E257.40464
G1 F2700 E252.40464
G0 F9000 X159.68 Y107.637
G1 F2700 E257.40464
G1 F1125 X146.03 Y93.987 E259.56194
G1 F2700 E254.56194
G0 F9000 X149.599 Y95.293
G1 F2700 E259.56194
G1 F1125 X158.869 Y104.563 E261.02701
G1 F2700 E256.02701
G0 F300 X158.869 Y104.563 Z0.756
G0 F9000 X160.432 Y104.541
G0 X160.818 Y105.822
G0 X161.199 Y107.873
G0 X161.485 Y111.778
G0 X161.446 Y124.332
G0 X161.125 Y127.686
G0 X160.673 Y129.713
G0 X160.549 Y130.078
G0 X159.877 Y131.841
G0 X158.415 Y131.498
;TIME_ELAPSED:154.784333
;LAYER:-4
;TYPE:SUPPORT
G1 F2700 E261.02701
G1 F1125 X150.901 Y139.012 E262.51144
G1 X151.371 Y138.701 E262.59017
G1 X152.188 Y138.08 E262.73352
G1 X152.756 Y137.608 E262.83669
G1 X153.919 Y136.842 E263.03122
G1 X154.787 Y136.166 E263.18491
G1 X155.568 Y135.455 E263.33245
G1 X156.164 Y134.838 E263.45228
G1 X156.829 Y134.046 E263.59675
G1 X157.491 Y133.132 E263.7544
G1 X158.057 Y132.197 E263.90708
G1 X158.506 Y131.321 E264.04459
G1 X158.934 Y130.297 E264.19963
G1 X159.218 Y129.462 E264.32283
G1 X159.284 Y129.215 E264.35855
G1 X148.017 Y140.482 E266.5844
G1 X147.061 Y140.848 E266.7274
G1 X146.161 Y141.126 E266.85898
G1 X145.903 Y141.181 E266.89583
G1 X159.683 Y127.402 E269.61804
G1 X159.816 Y126.258 E269.77893
G1 X159.765 Y126.258 E269.78605
G1 X159.808 Y125.862 E269.8417
G1 X144.146 Y141.524 E272.9358
G1 X143.16 Y141.646 E273.07459
G1 X142.587 Y141.669 E273.1547
G1 X159.977 Y124.278 E276.59028
G1 X160.018 Y123.245 E276.7347
G1 X160.018 Y122.823 E276.79365
G1 X141.144 Y141.698 E280.5224
G1 X140.656 Y141.697 E280.59057
G1 X139.761 Y141.666 E280.71567
G1 X160.018 Y121.409 E284.71755
G1 X160.013 Y120 E284.91437
G1 X138.479 Y141.535 E289.16863
G1 X137.59 Y141.374 E289.29483
G1 X137.298 Y141.301 E289.33688
G1 X159.913 Y118.686 E293.80459
G1 X159.84 Y117.873 E293.91861
G1 X159.82 Y117.364 E293.98977
G1 X136.195 Y140.99 E298.65711
G1 X135.154 Y140.617 E298.81158
G1 X159.975 Y115.796 E303.7151
G1 X160.018 Y114.694 E303.86916
G1 X160.018 Y114.338 E303.91889
G1 X134.159 Y140.198 E309.02757
G1 X133.624 Y139.956 E309.10959
G1 X133.198 Y139.744 E309.17606
G1 X160.018 Y112.924 E314.47449
G1 X160.014 Y111.514 E314.67146
G1 X132.147 Y139.381 E320.17673
G1 X131.805 Y139.282 E320.22646
G1 X130.985 Y139.129 E320.34299
G1 X159.929 Y110.184 E326.06112
G1 X159.845 Y109.383 E326.17363
G1 X159.813 Y108.886 E326.2432
G1 X129.886 Y138.814 E332.15553
G1 X129.173 Y138.616 E332.2589
G1 X128.731 Y138.554 E332.32125
G1 X159.676 Y107.609 E338.43459
G1 X159.591 Y107.043 E338.51454
G1 X159.451 Y106.42 E338.60374
G1 X127.383 Y138.488 E344.93894
G1 X126.519 Y138.452 E345.05974
G1 X126.058 Y138.399 E345.12456
G1 X159.15 Y105.307 E351.66206
G1 X158.758 Y104.285 E351.81496
G1 X124.815 Y138.227 E358.52048
G1 X123.697 Y137.932 E358.682
G1 X158.319 Y103.31 E365.52175
G1 X157.813 Y102.401 E365.66708
G1 X122.627 Y137.587 E372.61826
G1 X121.63 Y137.17 E372.76922
G1 X157.267 Y101.533 E379.80949
G1 X156.648 Y100.738 E379.95024
G1 X120.696 Y136.69 E387.05275
G1 X119.815 Y136.156 E387.19666
G1 X155.986 Y99.986 E394.34232
G1 X155.796 Y99.777 E394.38178
G1 X155.28 Y99.277 E394.48215
G1 X118.914 Y135.643 E401.66644
G1 X118.366 Y135.413 E401.74946
G1 X117.867 Y135.276 E401.82175
G1 X154.528 Y98.616 E409.06422
G1 X153.707 Y98.022 E409.20577
G1 X116.626 Y135.103 E416.53132
G1 X115.218 Y135.097 E416.72801
G1 X152.848 Y97.466 E424.1621
G1 X152.333 Y97.102 E424.2502
G1 X152.035 Y96.865 E424.30339
G1 X113.803 Y135.097 E431.85632
G1 X112.389 Y135.097 E432.05384
G1 X151.217 Y96.269 E439.72451
G1 X151.001 Y96.118 E439.76133
G1 X150.358 Y95.714 E439.86741
G1 X110.975 Y135.097 E447.64772
G1 X109.561 Y135.097 E447.84525
G1 X149.444 Y95.214 E455.72434
G1 X149.096 Y95.032 E455.7792
G1 X148.478 Y94.766 E455.87318
G1 X108.147 Y135.097 E463.84078
G1 X106.732 Y135.097 E464.03845
G1 X147.46 Y94.37 E472.08437
G1 X146.35 Y94.065 E472.24518
G1 X105.153 Y135.263 E480.38395
